<?xml version='1.0' encoding='utf-8'?>
<map version="1.10" tiledversion="1.12.2" orientation="orthogonal" renderorder="right-down" width="24" height="30" tilewidth="8" tileheight="8" infinite="0" nextlayerid="3" nextobjectid="2">
 <properties>
  <property name="screen-role" value="arcade-extra-event" />
  <property name="arcade-reference" value="MAME 0.220 ladybug frame 899 (EXTRA event +200)" />
  <property name="source-video" value="192x240 BGRA32; tile extraction 8x8 pixels" />
  <property name="representative-frame-offset" value="200" type="int" />
  <property name="source-frame-bgra32-sha256" value="132a5bd130edd9afa3c5021efb8609004347b17ea4c1c28e5267e2bc2c977405" />
  <property name="path-evidence-sha256" value="786e092f641ba2d729b5703d99baef3526e6a888fbd44bbc3bdb0c83b44255b3" />
  <property name="event-tileset-png-sha256" value="c05ac1c9ba07c4c45f058a5003e7d304aab1cc091c1fce7825b5aa5b98fcebc8" />
 </properties>
 <tileset firstgid="1" source="arcade-event-tiles.tsx" />
 <layer id="1" name="Arcade Event Frame" width="24" height="30">
  <data encoding="csv">
1,2,2,2,2,2,2,2,2,3,4,4,4,4,4,4,5,6,6,6,6,6,6,6,
7,244,245,16,246,247,20,248,7,15,249,250,251,252,253,15,21,22,23,22,24,22,25,21,
26,27,27,27,27,27,27,27,27,27,27,27,27,27,27,27,27,27,27,27,27,27,27,28,
29,30,31,31,31,31,31,31,31,31,31,31,31,31,31,31,31,31,31,31,31,31,31,32,
29,33,36,36,36,36,36,36,36,36,36,36,36,36,36,36,36,36,36,36,36,36,36,32,
29,33,36,36,254,36,36,36,36,36,255,36,36,256,36,257,258,259,36,36,36,36,36,32,
29,33,36,36,260,261,262,263,264,265,266,267,268,269,270,271,272,273,274,275,36,36,36,32,
29,33,36,36,276,277,278,279,280,281,282,283,284,285,286,287,288,289,289,290,36,36,36,32,
29,33,36,36,36,36,36,36,36,36,36,36,36,36,36,36,36,36,36,36,36,36,36,32,
29,33,36,291,291,291,291,291,291,291,36,36,36,36,291,291,291,291,291,291,291,36,36,32,
29,33,36,292,292,292,292,292,292,292,36,36,36,36,292,292,292,292,292,292,292,36,36,32,
29,33,36,36,36,36,36,36,36,293,294,36,36,36,36,36,36,36,36,36,36,36,36,32,
29,33,36,36,36,36,36,36,36,295,296,36,36,36,36,36,36,36,36,36,36,36,36,32,
29,33,36,36,36,36,36,36,36,297,298,291,291,36,36,36,36,36,36,36,36,36,36,32,
29,33,36,36,36,36,36,36,36,36,36,292,292,36,36,36,36,36,36,36,36,36,36,32,
29,33,36,291,291,291,291,291,36,36,36,36,36,36,36,36,291,291,291,291,291,36,36,32,
29,33,36,292,292,292,292,292,36,36,36,36,36,36,36,36,292,292,292,292,292,36,36,32,
29,33,36,36,36,36,36,36,36,36,36,36,36,36,36,36,36,36,36,36,36,36,36,32,
29,33,36,36,237,243,299,300,238,301,242,302,303,301,242,241,243,299,304,305,36,36,36,32,
29,33,36,36,36,36,36,36,36,36,36,36,36,36,36,36,36,36,36,36,36,36,36,32,
29,33,36,36,36,36,36,36,36,306,243,302,36,307,241,299,36,36,36,36,36,36,36,32,
29,33,36,36,36,36,36,36,36,36,36,36,36,36,36,36,36,36,36,36,36,36,36,32,
29,33,36,36,36,249,250,251,252,308,309,303,301,240,306,36,310,302,300,36,36,36,36,32,
29,33,36,36,36,36,36,36,36,311,312,36,36,36,36,36,36,36,36,36,36,36,36,32,
29,33,36,36,36,36,36,36,36,313,314,36,36,36,36,36,36,36,36,36,36,36,36,32,
210,211,211,211,211,211,211,211,211,211,211,211,211,211,211,211,211,211,211,211,211,211,211,212,
36,213,214,213,214,36,36,36,36,36,36,36,36,36,215,216,217,36,36,36,36,315,215,219,
36,220,221,220,221,36,36,36,36,36,36,36,36,36,36,36,36,36,36,36,36,36,36,36,
36,36,36,222,223,9,36,36,224,225,12,226,10,227,8,13,14,36,36,228,223,223,223,223,
36,36,36,229,230,231,231,231,36,232,233,234,235,36,236,36,237,238,239,240,241,242,36,243
</data>
 </layer>
 <objectgroup id="2" name="Ladybug Path" color="#ff00ff" opacity="0.85" visible="1" draworder="topdown">
  <object id="1" name="Ladybug traversal" x="9" y="25" width="96" height="182">
   <properties>
    <property name="actor" value="Ladybug" />
    <property name="point-anchor" value="16x16 sprite top-left" />
    <property name="path-order" value="start-to-finish" />
    <property name="sample-frame-range" value="event offsets 108-507" />
   </properties>
   <polyline points="80,0 80,64 64,64 64,96 96,96 96,64 0,64 0,182" />
  </object>
 </objectgroup>
</map>