<?xml version='1.0' encoding='utf-8'?>
<map version="1.10" tiledversion="1.12.2" orientation="orthogonal" renderorder="right-down" width="24" height="30" tilewidth="8" tileheight="8" infinite="0" nextlayerid="3" nextobjectid="2">
 <properties>
  <property name="screen-role" value="arcade-special-event" />
  <property name="arcade-reference" value="MAME 0.220 ladybug frame 1000 (SPECIAL event +300)" />
  <property name="source-video" value="192x240 BGRA32; tile extraction 8x8 pixels" />
  <property name="representative-frame-offset" value="300" type="int" />
  <property name="source-frame-bgra32-sha256" value="2efeb3a57672bb7442204dadb27988b1803ebb355ea6a7576d1de2fa37bd4620" />
  <property name="path-evidence-sha256" value="da0ad970590134b69de77d0461369197d20f169eff29d7aaa35586833e34c180" />
  <property name="event-tileset-png-sha256" value="c05ac1c9ba07c4c45f058a5003e7d304aab1cc091c1fce7825b5aa5b98fcebc8" />
 </properties>
 <tileset firstgid="1" source="arcade-event-tiles.tsx" />
 <layer id="1" name="Arcade Event Frame" width="24" height="30">
  <data encoding="csv">
1,2,2,2,2,2,2,2,2,3,4,4,4,4,4,4,5,6,6,6,6,6,6,6,
7,8,9,10,11,12,13,14,7,15,16,17,18,19,20,15,21,22,23,22,24,22,25,21,
26,27,27,27,27,27,27,27,27,27,27,27,27,27,27,27,27,27,27,27,27,27,27,28,
29,30,31,31,31,31,31,31,31,31,31,31,31,31,31,31,31,31,31,31,31,31,31,32,
29,33,34,35,36,36,36,36,36,36,36,36,36,36,36,36,36,36,36,36,36,36,36,32,
29,33,37,38,36,36,36,36,36,36,36,36,36,36,36,36,36,36,36,36,36,36,36,32,
29,33,36,36,36,36,36,36,36,36,36,36,36,36,36,36,36,36,36,36,36,36,36,32,
29,33,36,36,36,36,36,36,36,36,36,36,36,36,36,36,36,36,36,36,36,36,36,32,
29,33,36,36,36,36,36,36,36,36,36,36,36,36,36,36,36,36,36,36,36,36,36,32,
29,33,36,36,36,36,36,36,36,36,36,36,36,36,36,36,36,36,36,36,36,36,36,32,
29,33,36,36,36,36,36,36,36,36,39,36,36,39,36,36,36,36,36,36,36,36,36,32,
29,33,36,36,36,36,36,36,39,36,40,41,42,43,36,39,36,36,36,36,36,36,36,32,
29,33,36,36,36,36,36,36,36,36,44,45,46,47,36,36,36,36,36,36,36,36,36,32,
29,33,36,36,36,36,36,39,36,36,48,49,50,51,36,36,39,36,36,36,36,36,36,32,
29,33,36,36,36,36,36,36,36,36,52,53,54,55,36,36,36,36,36,36,36,36,36,32,
29,33,36,36,36,36,36,36,56,57,58,59,60,61,62,63,36,36,36,36,36,36,36,32,
29,33,36,36,36,36,36,36,64,65,66,67,68,69,70,71,36,36,36,36,36,36,36,32,
29,33,72,73,36,36,36,36,74,75,76,77,78,79,80,81,36,36,36,36,82,83,36,32,
29,33,84,85,86,87,36,36,88,89,90,91,92,93,94,95,36,36,96,97,98,99,36,32,
29,33,100,101,102,103,104,105,106,107,108,109,110,111,112,113,114,115,116,117,118,119,36,32,
29,33,120,121,122,123,124,125,126,127,128,129,130,131,132,133,134,135,136,137,138,139,36,32,
29,33,140,141,142,143,144,145,146,147,148,149,150,151,152,153,154,155,156,157,158,159,160,32,
29,33,161,162,163,164,165,166,167,168,169,170,171,172,173,174,175,176,177,178,179,180,181,32,
29,33,182,183,184,185,186,187,188,189,190,190,190,190,191,192,193,194,195,196,197,198,199,32,
29,33,200,201,202,203,204,190,190,190,190,190,190,190,190,190,190,205,206,207,208,209,36,32,
210,211,211,211,211,211,211,211,211,211,211,211,211,211,211,211,211,211,211,211,211,211,211,212,
36,213,214,213,214,36,36,36,36,36,36,36,36,36,215,216,217,36,36,36,36,218,215,219,
36,220,221,220,221,36,36,36,36,36,36,36,36,36,36,36,36,36,36,36,36,36,36,36,
36,36,36,222,223,9,36,36,224,225,12,226,10,227,8,13,14,36,36,228,223,223,223,223,
36,36,36,229,230,231,231,231,36,232,233,234,235,36,236,36,237,238,239,240,241,242,36,243
</data>
 </layer>
 <objectgroup id="2" name="Ladybug Path" color="#ff00ff" opacity="0.85" visible="1" draworder="topdown">
  <object id="1" name="Ladybug traversal" x="16" y="32" width="153" height="139">
   <properties>
    <property name="actor" value="Ladybug" />
    <property name="point-anchor" value="16x16 sprite top-left" />
    <property name="path-order" value="start-to-finish" />
    <property name="sample-frame-range" value="event offsets 307-599" />
   </properties>
   <polyline points="153,139 0,139 0,0" />
  </object>
 </objectgroup>
</map>