<?xml version="1.0" encoding="UTF-8"?>
<map version="1.10" tiledversion="1.12.2" orientation="orthogonal" renderorder="right-down" width="24" height="30" tilewidth="8" tileheight="8" infinite="0" nextlayerid="2" nextobjectid="1">
 <tileset firstgid="1" source="chars_raw2bpp.tsx"/>
 <layer id="1" name="Tile Layer 1" width="24" height="30">
  <data encoding="csv">
323,307,307,307,307,307,307,307,307,323,307,307,307,307,307,307,323,307,307,307,307,307,307,307,
291,49,97,273,305,209,337,161,291,291,273,482,33,65,337,291,291,147,465,147,449,147,417,291,
275,211,211,211,211,211,211,211,211,211,211,211,211,211,211,211,211,211,211,211,211,211,211,259,
163,242,226,226,226,226,226,226,226,293,212,164,436,226,226,226,226,226,226,226,226,226,226,195,
163,210,424,8,424,98,424,8,424,454,452,165,67,8,424,8,424,8,424,98,424,8,424,195,
163,210,8,114,162,146,130,210,8,50,226,210,8,242,226,66,8,114,162,146,130,210,8,195,
163,210,424,210,424,8,424,210,424,34,424,210,424,210,424,34,424,210,424,8,424,210,424,195,
163,210,8,50,226,194,8,194,499,18,8,194,8,194,499,18,8,194,8,226,226,66,8,195,
163,210,424,34,424,8,424,98,424,2,424,8,424,8,424,2,424,98,424,8,424,34,424,195,
163,210,499,18,8,114,162,146,130,226,226,341,228,242,226,178,162,146,130,210,499,18,8,195,
163,210,424,2,424,210,424,8,424,98,424,502,468,210,424,98,424,8,424,210,424,2,424,195,
163,210,8,226,226,194,8,114,162,146,130,194,8,178,162,146,130,341,228,226,226,194,8,195,
163,210,424,8,424,8,424,210,424,8,424,8,424,8,424,8,424,502,468,8,424,8,424,195,
163,148,388,226,226,210,8,66,8,341,228,210,8,210,8,210,8,66,8,242,226,194,8,195,
163,213,83,8,424,210,424,34,424,502,468,210,8,210,424,210,424,34,424,210,424,8,424,195,
163,210,8,210,8,66,499,18,8,66,8,226,226,194,8,66,499,18,8,66,8,210,8,195,
163,210,424,210,424,34,424,2,424,34,424,8,424,8,424,34,424,2,424,34,424,210,424,195,
163,210,8,210,499,18,8,210,499,18,8,210,8,210,499,18,8,210,499,18,8,405,260,195,
163,210,424,210,424,2,424,210,424,2,424,210,424,210,424,2,424,210,424,2,424,21,500,195,
163,210,8,226,226,261,196,194,8,226,226,194,8,226,226,194,8,194,8,226,226,194,8,195,
163,210,424,8,424,454,452,8,424,98,424,8,8,8,424,98,424,8,424,8,424,8,424,195,
163,210,8,242,226,226,226,178,162,146,130,210,8,114,162,146,130,226,226,226,226,210,8,195,
163,210,424,210,424,98,424,8,424,8,424,210,8,210,424,8,424,8,424,98,424,210,424,195,
163,210,8,178,162,146,130,226,226,194,8,194,8,194,8,226,226,178,162,146,130,194,8,195,
163,210,424,8,424,8,424,8,424,8,424,8,8,8,424,8,424,8,424,8,424,8,424,195,
227,179,179,179,179,179,179,179,179,179,179,179,179,179,179,179,179,179,179,179,179,179,179,243,
8,456,440,456,440,8,8,8,8,8,8,8,8,8,481,49,33,8,8,8,8,8,8,497,
8,488,472,488,472,8,8,8,8,8,8,8,8,8,8,8,8,8,8,8,8,8,8,8,
8,8,8,33,113,97,8,8,17,129,209,1,273,65,49,337,161,8,8,481,497,497,497,497,
8,8,8,338,481,497,497,497,8,97,337,65,33,8,481,8,305,65,273,289,209,33,8,497
</data>
 </layer>
</map>
