<?xml version="1.0" encoding="UTF-8"?>
<map version="1.10" tiledversion="1.12.2" orientation="orthogonal" renderorder="right-down" width="40" height="24" tilewidth="8" tileheight="8" infinite="0" nextlayerid="4" nextobjectid="1">
 <properties>
  <property name="adaptation" value="Arcade border at CoCo columns 8-31, rows 0-23; GAME OVER remains inside the border and the arcade upper/lower text is relocated to the lower-left HUD, wrapped for its 8-column width."/>
  <property name="arcade-reference" value="Lady Bug arcade screenshot MobyGames arcade screenshot 656820 (192x240)"/>
  <property name="presentation-overlay" value="Static arcade presentation glyphs; zero cells are transparent."/>
  <property name="screen-role" value="game-over"/>
 </properties>
 <tileset firstgid="1" source="chars_raw2bpp.tsx"/>
 <layer id="1" name="Arcade Maze Border" width="40" height="24">
  <data encoding="csv">
8,8,8,8,8,8,8,8,275,211,211,211,211,211,211,211,211,211,211,211,211,211,211,211,211,211,211,211,211,211,211,259,8,8,8,8,8,8,8,8,
8,8,8,8,8,8,8,8,163,242,226,226,226,226,226,226,226,226,226,226,226,226,226,226,226,226,226,226,226,226,226,195,8,8,8,8,8,8,8,8,
8,8,8,8,8,8,8,8,163,210,8,8,8,8,8,8,8,8,8,8,8,8,8,8,8,8,8,8,8,8,8,195,8,8,8,8,8,8,8,8,
8,8,8,8,8,8,8,8,163,210,8,8,8,8,8,8,8,8,8,8,8,8,8,8,8,8,8,8,8,8,8,195,8,8,8,8,8,8,8,8,
8,8,8,8,8,8,8,8,163,210,8,8,8,8,8,8,8,8,8,8,8,8,8,8,8,8,8,8,8,8,8,195,8,8,8,8,8,8,8,8,
8,8,8,8,8,8,8,8,163,210,8,8,8,8,8,8,8,8,8,8,8,8,8,8,8,8,8,8,8,8,8,195,8,8,8,8,8,8,8,8,
8,8,8,8,8,8,8,8,163,210,8,8,8,8,8,8,8,8,8,8,8,8,8,8,8,8,8,8,8,8,8,195,8,8,8,8,8,8,8,8,
8,8,8,8,8,8,8,8,163,210,8,8,8,8,8,8,8,8,8,8,8,8,8,8,8,8,8,8,8,8,8,195,8,8,8,8,8,8,8,8,
8,8,8,8,8,8,8,8,163,210,8,8,8,8,8,8,8,8,8,8,8,8,8,8,8,8,8,8,8,8,8,195,8,8,8,8,8,8,8,8,
8,8,8,8,8,8,8,8,163,210,8,8,8,8,8,8,8,8,8,8,8,8,8,8,8,8,8,8,8,8,8,195,8,8,8,8,8,8,8,8,
8,8,8,8,8,8,8,8,163,210,8,8,8,8,8,8,8,8,8,8,8,8,8,8,8,8,8,8,8,8,8,195,8,8,8,8,8,8,8,8,
8,8,8,8,8,8,8,8,163,210,8,8,8,8,8,8,8,8,8,8,8,8,8,8,8,8,8,8,8,8,8,195,8,8,8,8,8,8,8,8,
8,8,8,8,8,8,8,8,163,210,8,8,8,8,8,8,8,8,8,8,8,8,8,8,8,8,8,8,8,8,8,195,8,8,8,8,8,8,8,8,
8,8,8,8,8,8,8,8,163,210,8,8,8,8,8,8,8,8,8,8,8,8,8,8,8,8,8,8,8,8,8,195,8,8,8,8,8,8,8,8,
8,8,8,8,8,8,8,8,163,210,8,8,8,8,8,8,8,8,8,8,8,8,8,8,8,8,8,8,8,8,8,195,8,8,8,8,8,8,8,8,
8,8,8,8,8,8,8,8,163,210,8,8,8,8,8,8,8,8,8,8,8,8,8,8,8,8,8,8,8,8,8,195,8,8,8,8,8,8,8,8,
8,8,8,8,8,8,8,8,163,210,8,8,8,8,8,8,8,8,8,8,8,8,8,8,8,8,8,8,8,8,8,195,8,8,8,8,8,8,8,8,
8,8,8,8,8,8,8,8,163,210,8,8,8,8,8,8,8,8,8,8,8,8,8,8,8,8,8,8,8,8,8,195,8,8,8,8,8,8,8,8,
8,8,8,8,8,8,8,8,163,210,8,8,8,8,8,8,8,8,8,8,8,8,8,8,8,8,8,8,8,8,8,195,8,8,8,8,8,8,8,8,
8,8,8,8,8,8,8,8,163,210,8,8,8,8,8,8,8,8,8,8,8,8,8,8,8,8,8,8,8,8,8,195,8,8,8,8,8,8,8,8,
8,8,8,8,8,8,8,8,163,210,8,8,8,8,8,8,8,8,8,8,8,8,8,8,8,8,8,8,8,8,8,195,8,8,8,8,8,8,8,8,
8,8,8,8,8,8,8,8,163,210,8,8,8,8,8,8,8,8,8,8,8,8,8,8,8,8,8,8,8,8,8,195,8,8,8,8,8,8,8,8,
8,8,8,8,8,8,8,8,163,210,8,8,8,8,8,8,8,8,8,8,8,8,8,8,8,8,8,8,8,8,8,195,8,8,8,8,8,8,8,8,
8,8,8,8,8,8,8,8,227,179,179,179,179,179,179,179,179,179,179,179,179,179,179,179,179,179,179,179,179,179,179,243,8,8,8,8,8,8,8,8
</data>
 </layer>
 <layer id="2" name="CoCo Side HUD" width="40" height="24">
  <data encoding="csv">
323,307,307,307,307,307,307,307,0,0,0,0,0,0,0,0,0,0,0,0,0,0,0,0,0,0,0,0,0,0,0,0,0,0,0,0,0,0,0,0,
291,49,97,273,305,209,337,161,0,0,0,0,0,0,0,0,0,0,0,0,0,0,0,0,0,0,0,0,0,0,0,0,0,481,49,33,0,0,0,0,
1073742147,1073742131,1073742131,1073742131,1073742131,1073742131,1073742131,1073742131,0,0,0,0,0,0,0,0,0,0,0,0,0,0,0,0,0,0,0,0,0,0,0,0,0,497,497,497,497,497,497,0,
323,307,307,307,307,307,307,307,0,0,0,0,0,0,0,0,0,0,0,0,0,0,0,0,0,0,0,0,0,0,0,0,0,8,8,8,8,8,8,0,
291,273,482,33,65,337,8,0,0,0,0,0,0,0,0,0,0,0,0,0,0,0,0,0,0,0,0,0,0,0,0,0,0,33,113,97,0,0,0,0,
1073742147,1073742131,1073742131,1073742131,1073742131,1073742131,1073742131,1073742131,0,0,0,0,0,0,0,0,0,0,0,0,0,0,0,0,0,0,0,0,0,0,0,0,0,161,337,289,466,321,17,241,
323,307,307,307,307,307,307,307,0,0,0,0,0,0,0,0,0,0,0,0,0,0,0,0,0,0,0,0,0,0,0,0,0,497,497,497,497,497,497,0,
291,147,465,147,449,147,417,0,0,0,0,0,0,0,0,0,0,0,0,0,0,0,0,0,0,0,0,0,0,0,0,0,0,0,0,8,0,0,0,0,
1073742147,1073742131,1073742131,1073742131,1073742131,1073742131,1073742131,1073742131,0,0,0,0,0,0,0,0,0,0,0,0,0,0,0,0,0,0,0,0,0,0,0,0,0,305,65,273,289,209,33,0,
0,0,0,0,0,0,0,0,0,0,0,0,0,0,0,0,0,0,0,0,0,0,0,0,0,0,0,0,0,0,0,0,0,0,0,0,0,0,0,0,
8,8,0,8,8,0,8,8,0,0,0,0,0,0,0,0,0,0,0,0,0,0,0,0,0,0,0,0,0,0,0,0,0,497,8,8,0,0,0,0,
8,8,8,8,8,0,8,8,0,0,0,0,0,0,0,0,0,0,0,0,0,0,0,0,0,0,0,0,0,0,0,0,0,97,337,65,33,0,481,0,
8,8,8,8,8,8,8,8,0,0,0,0,0,0,0,0,0,0,0,0,0,0,0,0,0,0,0,0,0,0,0,0,0,8,0,8,0,0,0,0,
8,8,8,8,8,8,8,8,0,0,0,0,0,0,0,0,0,0,0,0,0,0,0,0,0,0,0,0,0,0,0,0,8,0,338,497,497,497,497,0,
8,8,8,8,8,8,0,0,0,0,0,0,0,0,0,0,0,0,0,0,0,0,0,0,0,0,0,0,0,0,0,0,0,0,0,8,0,0,0,0,
8,8,8,8,8,8,0,0,0,0,0,0,0,0,0,0,0,0,0,0,0,0,0,0,0,0,0,0,0,0,0,0,0,8,8,8,0,8,0,0,
8,8,8,8,8,8,0,0,0,0,0,0,0,0,0,0,0,0,0,0,0,0,0,0,0,0,0,0,0,0,0,0,0,0,0,0,0,0,0,0,
8,8,8,8,8,8,0,0,0,0,0,0,0,0,0,0,0,0,0,0,0,0,0,0,0,0,0,0,0,0,0,0,0,8,8,8,8,8,0,0,
0,0,0,0,0,0,0,0,0,0,0,0,0,0,0,0,0,0,0,0,0,0,0,0,0,0,0,0,0,0,0,0,0,8,0,8,0,8,0,0,
0,0,0,0,0,0,0,0,0,0,0,0,0,0,0,0,0,0,0,0,0,0,0,0,0,0,0,0,0,0,0,0,0,8,0,0,0,0,0,0,
0,0,0,0,0,0,0,0,0,0,0,0,0,0,0,0,0,0,0,0,0,0,0,0,0,0,0,0,0,0,0,0,0,8,0,8,0,8,8,0,
0,0,0,0,0,0,0,0,0,0,0,0,0,0,0,0,0,0,0,0,0,0,0,0,0,0,0,0,0,0,0,0,0,456,440,456,440,456,440,0,
0,0,0,0,0,0,0,0,0,0,0,0,0,0,0,0,0,0,0,0,0,0,0,0,0,0,0,0,0,0,0,0,0,488,472,488,472,488,472,0,
0,0,0,0,0,0,0,0,0,0,0,0,0,0,0,0,0,0,0,0,0,0,0,0,0,0,0,0,0,0,0,0,0,0,0,0,0,0,0,0
</data>
 </layer>
 <layer id="3" name="Game Over Overlay" width="40" height="24">
  <data encoding="csv">
0,0,0,0,0,0,0,0,0,0,0,0,0,0,0,0,0,0,0,0,0,0,0,0,0,0,0,0,0,0,0,0,0,0,0,0,0,0,0,0,
0,0,0,0,0,0,0,0,0,0,0,0,0,0,0,0,0,0,0,0,0,0,0,0,0,0,0,0,0,0,0,0,0,0,0,0,0,0,0,0,
0,0,0,0,0,0,0,0,0,0,0,0,0,0,0,0,0,0,0,0,0,0,0,0,0,0,0,0,0,0,0,0,0,0,0,0,0,0,0,0,
0,0,0,0,0,0,0,0,0,0,0,0,0,0,0,0,0,0,0,0,0,0,0,0,0,0,0,0,0,0,0,0,0,0,0,0,0,0,0,0,
0,0,0,0,0,0,0,0,0,0,0,0,0,0,0,0,0,0,0,0,0,0,0,0,0,0,0,0,0,0,0,0,0,0,0,0,0,0,0,0,
0,0,0,0,0,0,0,0,0,0,0,0,0,0,0,0,0,0,0,0,0,0,0,0,0,0,0,0,0,0,0,0,0,0,0,0,0,0,0,0,
0,0,0,0,0,0,0,0,0,0,0,0,0,0,0,0,0,0,0,0,0,0,0,0,0,0,0,0,0,0,0,0,0,0,0,0,0,0,0,0,
0,0,0,0,0,0,0,0,0,0,0,0,0,0,0,0,0,0,0,0,0,0,0,0,0,0,0,0,0,0,0,0,0,0,0,0,0,0,0,0,
0,0,0,0,0,0,0,0,0,0,0,0,0,0,0,0,0,0,0,0,0,0,0,0,0,0,0,0,0,0,0,0,0,0,0,0,0,0,0,0,
0,0,0,0,0,0,0,0,0,0,0,0,0,0,0,0,0,0,0,0,0,0,0,0,0,0,0,0,0,0,0,0,0,0,0,0,0,0,0,0,
0,0,0,0,0,0,0,0,0,0,0,0,0,0,0,0,0,0,0,0,0,0,0,0,0,0,0,0,0,0,0,0,0,0,0,0,0,0,0,0,
0,0,0,0,0,0,0,0,0,0,0,0,0,0,0,241,337,145,273,0,113,1,273,65,0,0,0,0,0,0,0,0,0,0,0,0,0,0,0,0,
0,0,0,0,0,0,0,0,0,0,0,0,0,0,0,0,0,0,0,0,0,0,0,0,0,0,0,0,0,0,0,0,0,0,0,0,0,0,0,0,
0,0,0,0,0,0,0,0,0,0,0,0,0,0,0,0,0,0,0,0,0,0,0,0,0,0,0,0,0,0,0,0,0,0,0,0,0,0,0,0,
0,0,0,0,0,0,0,0,0,0,0,0,0,0,0,0,0,0,0,0,0,0,0,0,0,0,0,0,0,0,0,0,0,0,0,0,0,0,0,0,
0,0,0,0,0,0,0,0,0,0,0,0,0,0,0,0,0,0,0,0,0,0,0,0,0,0,0,0,0,0,0,0,0,0,0,0,0,0,0,0,
0,0,0,0,0,0,0,0,0,0,0,0,0,0,0,0,0,0,0,0,0,0,0,0,0,0,0,0,0,0,0,0,0,0,0,0,0,0,0,0,
0,0,0,0,0,0,0,0,0,0,0,0,0,0,0,0,0,0,0,0,0,0,0,0,0,0,0,0,0,0,0,0,0,0,0,0,0,0,0,0,
0,0,0,0,0,0,0,0,0,0,0,0,0,0,0,0,0,0,0,0,0,0,0,0,0,0,0,0,0,0,0,0,0,0,0,0,0,0,0,0,
0,0,0,0,0,0,0,0,0,0,0,0,0,0,0,0,0,0,0,0,0,0,0,0,0,0,0,0,0,0,0,0,0,0,0,0,0,0,0,0,
0,0,0,0,0,0,0,0,0,0,0,0,0,0,0,0,0,0,0,0,0,0,0,0,0,0,0,0,0,0,0,0,0,0,0,0,0,0,0,0,
0,0,0,0,0,0,0,0,0,0,0,0,0,0,0,0,0,0,0,0,0,0,0,0,0,0,0,0,0,0,0,0,0,0,0,0,0,0,0,0,
0,0,0,0,0,0,0,0,0,0,0,0,0,0,0,0,0,0,0,0,0,0,0,0,0,0,0,0,0,0,0,0,0,0,0,0,0,0,0,0,
0,0,0,0,0,0,0,0,0,0,0,0,0,0,0,0,0,0,0,0,0,0,0,0,0,0,0,0,0,0,0,0,0,0,0,0,0,0,0,0
</data>
 </layer>
</map>
