<?xml version="1.0" encoding="UTF-8"?>
<map version="1.10" tiledversion="1.12.2" orientation="orthogonal" renderorder="right-down" width="40" height="24" tilewidth="8" tileheight="8" infinite="0" nextlayerid="4" nextobjectid="1">
 <properties>
  <property name="adaptation" value="Arcade border at CoCo columns 8-31, rows 0-23 with established side-HUD adaptation; YOU GET TOP HI SCORE is relocated to the lower-left HUD."/>
  <property name="arcade-reference" value="MAME 0.220 ladybug forced qualifying-score frame 1280"/>
  <property name="dynamic-overlay" value="Animated Lady Bug selection cursor is runtime sprite state, not part of the static tile map."/>
  <property name="presentation-overlay" value="Static arcade presentation glyphs; zero cells are transparent."/>
  <property name="screen-role" value="enter-high-score"/>
 </properties>
 <tileset firstgid="1" source="chars_raw2bpp.tsx"/>
 <layer id="1" name="Arcade Maze Border" width="40" height="24">
  <data encoding="csv">
0,0,0,0,0,0,0,0,275,211,211,211,211,211,211,211,211,211,211,211,211,211,211,211,211,211,211,211,211,211,211,259,0,0,0,0,0,0,0,0,
0,0,0,0,0,0,0,0,163,242,226,226,226,226,226,226,226,226,226,226,226,226,226,226,226,226,226,226,226,226,226,195,0,0,0,0,0,0,0,0,
0,0,0,0,0,0,0,0,163,210,8,8,8,8,8,8,8,8,8,8,8,8,8,8,8,8,8,8,8,8,8,195,0,0,0,0,0,0,0,0,
0,0,0,0,0,0,0,0,163,210,8,8,8,8,8,8,8,8,8,8,8,8,8,8,8,8,8,8,8,8,8,195,0,0,0,0,0,0,0,0,
0,0,0,0,0,0,0,0,163,210,8,8,8,8,8,8,8,8,8,8,8,8,8,8,8,8,8,8,8,8,8,195,0,0,0,0,0,0,0,0,
0,0,0,0,0,0,0,0,163,210,8,8,8,8,8,8,8,8,8,8,8,8,8,8,8,8,8,8,8,8,8,195,0,0,0,0,0,0,0,0,
0,0,0,0,0,0,0,0,163,210,8,8,8,8,8,8,8,8,8,8,8,8,8,8,8,8,8,8,8,8,8,195,0,0,0,0,0,0,0,0,
0,0,0,0,0,0,0,0,163,210,8,8,8,8,8,8,8,8,8,8,8,8,8,8,8,8,8,8,8,8,8,195,0,0,0,0,0,0,0,0,
0,0,0,0,0,0,0,0,163,210,8,8,8,8,8,8,8,8,8,8,8,8,8,8,8,8,8,8,8,8,8,195,0,0,0,0,0,0,0,0,
0,0,0,0,0,0,0,0,163,210,8,8,8,8,8,8,8,8,8,8,8,8,8,8,8,8,8,8,8,8,8,195,0,0,0,0,0,0,0,0,
0,0,0,0,0,0,0,0,163,210,8,8,8,8,8,8,8,8,8,8,8,8,8,8,8,8,8,8,8,8,8,195,0,0,0,0,0,0,0,0,
0,0,0,0,0,0,0,0,163,210,8,8,8,8,8,8,8,8,8,8,8,8,8,8,8,8,8,8,8,8,8,195,0,0,0,0,0,0,0,0,
0,0,0,0,0,0,0,0,163,210,8,8,8,8,8,8,8,8,8,8,8,8,8,8,8,8,8,8,8,8,8,195,0,0,0,0,0,0,0,0,
0,0,0,0,0,0,0,0,163,210,8,8,8,8,8,8,8,8,8,8,8,8,8,8,8,8,8,8,8,8,8,195,0,0,0,0,0,0,0,0,
0,0,0,0,0,0,0,0,163,210,8,8,8,8,8,8,8,8,8,8,8,8,8,8,8,8,8,8,8,8,8,195,0,0,0,0,0,0,0,0,
0,0,0,0,0,0,0,0,163,210,8,8,8,8,8,8,8,8,8,8,8,8,8,8,8,8,8,8,8,8,8,195,0,0,0,0,0,0,0,0,
0,0,0,0,0,0,0,0,163,210,8,8,8,8,8,8,8,8,8,8,8,8,8,8,8,8,8,8,8,8,8,195,0,0,0,0,0,0,0,0,
0,0,0,0,0,0,0,0,163,210,8,8,8,8,8,8,8,8,8,8,8,8,8,8,8,8,8,8,8,8,8,195,0,0,0,0,0,0,0,0,
0,0,0,0,0,0,0,0,163,210,8,8,8,8,8,8,8,8,8,8,8,8,8,8,8,8,8,8,8,8,8,195,0,0,0,0,0,0,0,0,
0,0,0,0,0,0,0,0,163,210,8,8,8,8,8,8,8,8,8,8,8,8,8,8,8,8,8,8,8,8,8,195,0,0,0,0,0,0,0,0,
0,0,0,0,0,0,0,0,163,210,8,8,8,8,8,8,8,8,8,8,8,8,8,8,8,8,8,8,8,8,8,195,0,0,0,0,0,0,0,0,
0,0,0,0,0,0,0,0,163,210,8,8,8,8,8,8,8,8,8,8,8,8,8,8,8,8,8,8,8,8,8,195,0,0,0,0,0,0,0,0,
0,0,0,0,0,0,0,0,163,210,8,8,8,8,8,8,8,8,8,8,8,8,8,8,8,8,8,8,8,8,8,195,0,0,0,0,0,0,0,0,
0,0,0,0,0,0,0,0,227,179,179,179,179,179,179,179,179,179,179,179,179,179,179,179,179,179,179,179,179,179,179,243,0,0,0,0,0,0,0,0
</data>
 </layer>
 <layer id="2" name="CoCo Side HUD" width="40" height="24">
  <data encoding="csv">
323,307,307,307,307,307,307,307,0,0,0,0,0,0,0,0,0,0,0,0,0,0,0,0,0,0,0,0,0,0,0,0,8,8,8,8,8,8,8,8,
291,49,97,273,305,209,337,161,0,0,0,0,0,0,0,0,0,0,0,0,0,0,0,0,0,0,0,0,0,0,0,0,8,481,49,33,8,8,8,8,
1073742147,1073742131,1073742131,1073742131,1073742131,1073742131,1073742131,1073742131,0,0,0,0,0,0,0,0,0,0,0,0,0,0,0,0,0,0,0,0,0,0,0,0,8,497,497,497,497,497,497,8,
323,307,307,307,307,307,307,307,0,0,0,0,0,0,0,0,0,0,0,0,0,0,0,0,0,0,0,0,0,0,0,0,8,8,8,8,8,8,8,8,
291,273,482,33,65,337,8,8,0,0,0,0,0,0,0,0,0,0,0,0,0,0,0,0,0,0,0,0,0,0,0,0,8,33,113,97,8,8,8,8,
1073742147,1073742131,1073742131,1073742131,1073742131,1073742131,1073742131,1073742131,0,0,0,0,0,0,0,0,0,0,0,0,0,0,0,0,0,0,0,0,0,0,0,0,8,161,337,289,466,321,17,241,
323,307,307,307,307,307,307,307,0,0,0,0,0,0,0,0,0,0,0,0,0,0,0,0,0,0,0,0,0,0,0,0,8,497,497,497,497,497,497,8,
291,147,465,147,449,147,417,8,0,0,0,0,0,0,0,0,0,0,0,0,0,0,0,0,0,0,0,0,0,0,0,0,8,8,8,8,8,8,8,8,
1073742147,1073742131,1073742131,1073742131,1073742131,1073742131,1073742131,1073742131,0,0,0,0,0,0,0,0,0,0,0,0,0,0,0,0,0,0,0,0,0,0,0,0,8,305,65,273,289,209,33,8,
8,8,8,8,8,8,8,8,0,0,0,0,0,0,0,0,0,0,0,0,0,0,0,0,0,0,0,0,0,0,0,0,8,8,8,8,8,8,8,8,
8,8,8,8,8,8,8,8,0,0,0,0,0,0,0,0,0,0,0,0,0,0,0,0,0,0,0,0,0,0,0,0,8,497,8,8,8,8,8,8,
8,8,8,8,8,8,8,8,0,0,0,0,0,0,0,0,0,0,0,0,0,0,0,0,0,0,0,0,0,0,0,0,8,97,337,65,33,8,481,8,
8,8,8,8,8,8,8,8,0,0,0,0,0,0,0,0,0,0,0,0,0,0,0,0,0,0,0,0,0,0,0,0,8,8,8,8,8,8,8,8,
8,8,8,8,8,8,8,8,0,0,0,0,0,0,0,0,0,0,0,0,0,0,0,0,0,0,0,0,0,0,0,0,8,8,338,497,497,497,497,8,
8,8,8,8,8,8,8,8,0,0,0,0,0,0,0,0,0,0,0,0,0,0,0,0,0,0,0,0,0,0,0,0,8,8,8,8,8,8,8,8,
8,8,8,8,8,8,8,8,0,0,0,0,0,0,0,0,0,0,0,0,0,0,0,0,0,0,0,0,0,0,0,0,8,8,8,8,8,8,8,8,
8,8,8,8,8,8,8,8,0,0,0,0,0,0,0,0,0,0,0,0,0,0,0,0,0,0,0,0,0,0,0,0,8,8,8,8,8,8,8,8,
8,8,8,8,8,8,8,8,0,0,0,0,0,0,0,0,0,0,0,0,0,0,0,0,0,0,0,0,0,0,0,0,8,8,8,8,8,8,8,8,
8,8,8,8,8,8,8,8,0,0,0,0,0,0,0,0,0,0,0,0,0,0,0,0,0,0,0,0,0,0,0,0,8,8,8,8,8,8,8,8,
8,8,8,8,8,8,8,8,0,0,0,0,0,0,0,0,0,0,0,0,0,0,0,0,0,0,0,0,0,0,0,0,8,8,8,8,8,8,8,8,
8,8,8,8,8,8,8,8,0,0,0,0,0,0,0,0,0,0,0,0,0,0,0,0,0,0,0,0,0,0,0,0,8,8,8,8,8,8,8,8,
8,8,8,8,8,8,8,8,0,0,0,0,0,0,0,0,0,0,0,0,0,0,0,0,0,0,0,0,0,0,0,0,8,456,440,456,440,456,440,8,
8,8,8,8,8,8,8,8,0,0,0,0,0,0,0,0,0,0,0,0,0,0,0,0,0,0,0,0,0,0,0,0,8,488,472,488,472,488,472,8,
8,8,8,8,8,8,8,8,0,0,0,0,0,0,0,0,0,0,0,0,0,0,0,0,0,0,0,0,0,0,0,0,8,8,8,8,8,8,8,8
</data>
 </layer>
 <layer id="3" name="Enter High Score Overlay" width="40" height="24">
  <data encoding="csv">
0,0,0,0,0,0,0,0,0,0,0,0,0,0,0,0,0,0,0,0,0,0,0,0,0,0,0,0,0,0,0,0,0,0,0,0,0,0,0,0,
0,0,0,0,0,0,0,0,0,0,0,0,0,0,0,0,0,0,0,0,0,0,0,0,0,0,0,0,0,0,0,0,0,0,0,0,0,0,0,0,
0,0,0,0,0,0,0,0,0,0,0,0,0,0,0,0,0,0,0,0,0,0,0,0,0,0,0,0,0,0,0,0,0,0,0,0,0,0,0,0,
0,0,0,0,0,0,0,0,0,0,0,226,226,0,0,226,226,0,0,226,226,0,0,226,226,0,0,226,226,0,0,0,0,0,0,0,0,0,0,0,
0,0,0,0,0,0,0,0,0,0,0,305,161,0,0,0,337,0,0,0,321,0,0,0,305,0,0,305,161,0,0,0,0,0,0,0,0,0,0,0,
0,0,0,0,0,0,0,0,0,0,0,226,226,0,0,226,226,0,0,226,226,0,0,226,226,0,0,226,226,0,0,0,0,0,0,0,0,0,0,0,
0,0,0,0,0,0,0,0,0,0,0,0,289,0,0,0,273,0,0,0,257,0,0,0,241,0,0,0,225,0,0,0,0,0,0,0,0,0,0,0,
0,0,0,0,0,0,0,0,0,0,0,226,226,0,0,226,226,0,0,226,226,0,0,226,226,0,0,226,226,0,0,0,0,0,0,0,0,0,0,0,
0,0,0,0,0,0,0,0,0,0,0,0,209,0,0,0,193,0,0,0,177,0,0,0,161,0,0,0,145,0,0,0,0,0,0,0,0,0,0,0,
0,0,0,0,0,0,0,0,0,0,0,226,226,0,0,226,226,0,0,226,226,0,0,226,226,0,0,226,226,0,0,0,0,0,0,0,0,0,0,0,
0,466,113,17,0,241,273,33,0,0,0,0,129,0,0,0,113,0,0,0,97,0,0,0,81,0,0,0,65,0,0,0,0,0,0,0,0,0,0,0,
0,0,0,0,0,0,0,0,0,0,0,226,226,0,0,226,226,0,0,226,226,0,0,226,226,0,0,226,226,0,0,0,0,0,0,0,0,0,0,0,
0,33,113,97,0,225,209,0,0,0,0,0,49,0,0,0,33,0,0,0,17,0,0,0,1,0,0,0,498,0,0,0,0,0,0,0,0,0,0,0,
0,0,0,0,0,0,0,0,0,0,0,226,226,0,0,226,226,0,0,226,226,0,0,226,226,0,0,226,226,0,0,0,0,0,0,0,0,0,0,0,
0,49,305,113,65,273,0,0,0,0,0,0,482,0,0,0,466,0,0,0,450,0,0,0,481,0,0,0,465,0,0,0,0,0,0,0,0,0,0,0,
0,0,0,0,0,0,0,0,0,0,0,226,226,0,0,226,226,0,0,226,226,0,0,226,226,0,0,226,226,0,0,0,0,0,0,0,0,0,0,0,
0,0,0,0,0,0,0,0,0,0,0,0,449,0,0,0,433,0,0,0,417,0,0,0,401,0,0,0,385,0,0,0,0,0,0,0,0,0,0,0,
0,0,0,0,0,0,0,0,0,0,0,226,226,0,0,226,226,0,0,226,226,0,0,226,226,0,0,226,226,0,0,0,0,0,0,0,0,0,0,0,
0,33,113,97,0,0,0,0,0,0,0,0,369,0,0,0,353,0,0,0,386,0,0,0,370,0,0,0,434,0,0,0,0,0,0,0,0,0,0,0,
0,0,0,0,0,0,0,0,0,0,0,226,226,0,0,226,226,0,0,226,226,0,0,226,226,0,0,226,226,0,0,0,0,0,0,0,0,0,0,0,
0,497,497,497,497,497,497,0,0,0,0,305,161,0,0,0,290,0,0,0,0,0,0,0,354,0,0,131,115,0,0,0,0,0,0,0,0,0,0,0,
0,0,0,0,0,0,0,0,0,0,0,226,226,0,0,226,226,0,0,226,226,0,0,226,226,0,0,226,226,0,0,0,0,0,0,0,0,0,0,0,
0,0,0,0,0,0,0,0,0,0,0,0,0,0,0,0,0,0,0,0,0,0,0,0,0,0,0,0,0,0,0,0,0,0,0,0,0,0,0,0,
0,0,0,0,0,0,0,0,0,0,0,0,0,0,0,0,0,0,0,0,0,0,0,0,0,0,0,0,0,0,0,0,0,0,0,0,0,0,0,0
</data>
 </layer>
</map>
