<?xml version='1.0' encoding='utf-8'?>
<map version="1.10" tiledversion="1.12.2" orientation="orthogonal" renderorder="right-down" width="40" height="24" tilewidth="8" tileheight="8" infinite="0" nextlayerid="7" nextobjectid="2">
 <properties>
  <property name="screen-role" value="coco-extra-event" />
  <property name="arcade-reference" value="MAME 0.220 ladybug frame 899 (EXTRA event +200)" />
  <property name="adaptation" value="Arcade event scene rows 2-25 centered at CoCo columns 8-31; side HUD and maze border reuse tiled/coco-screen.tmx layers." />
  <property name="path-transform" value="Arcade path point (x,y) maps to CoCo (x+64,y-16) pixels." />
  <property name="source-frame-bgra32-sha256" value="132a5bd130edd9afa3c5021efb8609004347b17ea4c1c28e5267e2bc2c977405" />
  <property name="path-evidence-sha256" value="786e092f641ba2d729b5703d99baef3526e6a888fbd44bbc3bdb0c83b44255b3" />
  <property name="event-tileset-png-sha256" value="c05ac1c9ba07c4c45f058a5003e7d304aab1cc091c1fce7825b5aa5b98fcebc8" />
 </properties>
 <tileset firstgid="1" source="chars_raw2bpp.tsx" />
 <tileset firstgid="513" source="sprites_raw2bpp.tsx" />
 <tileset firstgid="1025" source="arcade-event-tiles.tsx" />
 <layer id="1" name="Background" width="40" height="24">
  <data encoding="csv">
8,8,8,8,8,8,8,8,8,8,8,8,8,8,8,8,8,8,8,8,8,8,8,8,8,8,8,8,8,8,8,8,8,8,8,8,8,8,8,8,
8,8,8,8,8,8,8,8,8,8,8,8,8,8,8,8,8,8,8,8,8,8,8,8,8,8,8,8,8,8,8,8,8,8,8,8,8,8,8,8,
8,8,8,8,8,8,8,8,8,8,8,8,8,8,8,8,8,8,8,8,8,8,8,8,8,8,8,8,8,8,8,8,8,8,8,8,8,8,8,8,
8,8,8,8,8,8,8,8,8,8,8,8,8,8,8,8,8,8,8,8,8,8,8,8,8,8,8,8,8,8,8,8,8,8,8,8,8,8,8,8,
8,8,8,8,8,8,8,8,8,8,8,8,8,8,8,8,8,8,8,8,8,8,8,8,8,8,8,8,8,8,8,8,8,8,8,8,8,8,8,8,
8,8,8,8,8,8,8,8,8,8,8,8,8,8,8,8,8,8,8,8,8,8,8,8,8,8,8,8,8,8,8,8,8,8,8,8,8,8,8,8,
8,8,8,8,8,8,8,8,8,8,8,8,8,8,8,8,8,8,8,8,8,8,8,8,8,8,8,8,8,8,8,8,8,8,8,8,8,8,8,8,
8,8,8,8,8,8,8,8,8,8,8,8,8,8,8,8,8,8,8,8,8,8,8,8,8,8,8,8,8,8,8,8,8,8,8,8,8,8,8,8,
8,8,8,8,8,8,8,8,8,8,8,8,8,8,8,8,8,8,8,8,8,8,8,8,8,8,8,8,8,8,8,8,8,8,8,8,8,8,8,8,
8,8,8,8,8,8,8,8,8,8,8,8,8,8,8,8,8,8,8,8,8,8,8,8,8,8,8,8,8,8,8,8,8,8,8,8,8,8,8,8,
8,8,8,8,8,8,8,8,8,8,8,8,8,8,8,8,8,8,8,8,8,8,8,8,8,8,8,8,8,8,8,8,8,8,8,8,8,8,8,8,
8,8,8,8,8,8,8,8,8,8,8,8,8,8,8,8,8,8,8,8,8,8,8,8,8,8,8,8,8,8,8,8,8,8,8,8,8,8,8,8,
8,8,8,8,8,8,8,8,8,8,8,8,8,8,8,8,8,8,8,8,8,8,8,8,8,8,8,8,8,8,8,8,8,8,8,8,8,8,8,8,
8,8,8,8,8,8,8,8,8,8,8,8,8,8,8,8,8,8,8,8,8,8,8,8,8,8,8,8,8,8,8,8,8,8,8,8,8,8,8,8,
8,8,8,8,8,8,8,8,8,8,8,8,8,8,8,8,8,8,8,8,8,8,8,8,8,8,8,8,8,8,8,8,8,8,8,8,8,8,8,8,
8,8,8,8,8,8,8,8,8,8,8,8,8,8,8,8,8,8,8,8,8,8,8,8,8,8,8,8,8,8,8,8,8,8,8,8,8,8,8,8,
8,8,8,8,8,8,8,8,8,8,8,8,8,8,8,8,8,8,8,8,8,8,8,8,8,8,8,8,8,8,8,8,8,8,8,8,8,8,8,8,
8,8,8,8,8,8,8,8,8,8,8,8,8,8,8,8,8,8,8,8,8,8,8,8,8,8,8,8,8,8,8,8,8,8,8,8,8,8,8,8,
8,8,8,8,8,8,8,8,8,8,8,8,8,8,8,8,8,8,8,8,8,8,8,8,8,8,8,8,8,8,8,8,8,8,8,8,8,8,8,8,
8,8,8,8,8,8,8,8,8,8,8,8,8,8,8,8,8,8,8,8,8,8,8,8,8,8,8,8,8,8,8,8,8,8,8,8,8,8,8,8,
8,8,8,8,8,8,8,8,8,8,8,8,8,8,8,8,8,8,8,8,8,8,8,8,8,8,8,8,8,8,8,8,8,8,8,8,8,8,8,8,
8,8,8,8,8,8,8,8,8,8,8,8,8,8,8,8,8,8,8,8,8,8,8,8,8,8,8,8,8,8,8,8,8,8,8,8,8,8,8,8,
8,8,8,8,8,8,8,8,8,8,8,8,8,8,8,8,8,8,8,8,8,8,8,8,8,8,8,8,8,8,8,8,8,8,8,8,8,8,8,8,
8,8,8,8,8,8,8,8,8,8,8,8,8,8,8,8,8,8,8,8,8,8,8,8,8,8,8,8,8,8,8,8,8,8,8,8,8,8,8,8
</data>
 </layer>
 <layer id="2" name="Maze and Panel Background" width="40" height="24">
  <data encoding="csv">
0,0,0,0,0,0,0,0,0,0,0,0,0,0,0,0,0,0,0,0,0,0,0,0,0,0,0,0,0,0,0,0,0,0,0,0,0,0,0,0,
0,0,0,0,0,0,0,0,0,0,0,0,0,0,0,0,0,0,0,0,0,0,0,0,0,0,0,0,0,0,0,0,0,0,0,0,0,0,0,0,
0,0,0,0,0,0,0,0,0,0,424,0,424,98,424,0,424,0,424,0,424,0,424,0,424,0,424,98,424,0,424,0,0,0,0,0,0,0,0,0,
0,0,0,0,0,0,0,0,0,0,0,114,162,146,130,210,0,50,226,210,0,242,226,66,0,114,162,146,130,210,0,0,0,0,0,0,0,0,0,0,
0,0,0,0,0,0,0,0,0,0,424,210,424,0,424,210,424,34,424,210,424,210,424,34,424,210,424,0,424,210,424,0,0,0,0,0,0,0,0,0,
0,0,0,0,0,0,0,0,0,0,0,50,226,194,0,194,499,18,0,194,0,194,499,18,0,194,0,226,226,66,0,0,0,0,0,0,0,0,0,0,
0,0,0,0,0,0,0,0,0,0,424,34,424,0,424,98,424,2,424,0,424,0,424,2,424,98,424,0,424,34,424,0,0,0,0,0,0,0,0,0,
0,0,0,0,0,0,0,0,0,0,499,18,0,114,162,146,130,226,226,210,0,242,226,178,162,146,130,210,499,18,0,0,0,0,0,0,0,0,0,0,
0,0,0,0,0,0,0,0,0,0,424,2,424,210,424,0,424,98,424,210,424,210,424,98,424,0,424,210,424,2,424,0,0,0,0,0,0,0,0,0,
0,0,0,0,0,0,0,0,0,0,0,226,226,194,0,114,162,146,130,194,0,178,162,146,130,210,0,226,226,194,0,0,0,0,0,0,0,0,0,0,
0,0,0,0,0,0,0,0,0,0,424,0,424,0,424,210,424,0,424,0,424,0,424,0,424,210,424,0,424,0,424,0,0,0,0,0,0,0,0,0,
0,0,0,0,0,0,0,0,0,0,0,226,226,210,0,66,0,210,0,210,0,210,0,210,0,66,0,242,226,194,0,0,0,0,0,0,0,0,0,0,
0,0,0,0,0,0,0,0,0,0,424,0,424,210,424,34,424,210,424,210,0,210,424,210,424,34,424,210,424,0,424,0,0,0,0,0,0,0,0,0,
0,0,0,0,0,0,0,0,0,0,0,210,0,66,499,18,0,66,0,226,226,194,0,66,499,18,0,66,0,210,0,0,0,0,0,0,0,0,0,0,
0,0,0,0,0,0,0,0,0,0,424,210,424,34,424,2,424,34,424,0,424,0,424,34,424,2,424,34,424,210,424,0,0,0,0,0,0,0,0,0,
0,0,0,0,0,0,0,0,0,0,0,210,499,18,0,210,499,18,0,210,0,210,499,18,0,210,499,18,0,210,0,0,0,0,0,0,0,0,0,0,
0,0,0,0,0,0,0,0,0,0,424,210,424,2,424,210,424,2,424,210,424,210,424,2,424,210,424,2,424,210,424,0,0,0,0,0,0,0,0,0,
0,0,0,0,0,0,0,0,0,0,0,226,226,226,0,194,0,226,226,194,0,226,226,194,0,194,0,226,226,194,0,0,0,0,0,0,0,0,0,0,
0,0,0,0,0,0,0,0,0,0,424,0,424,0,424,0,424,98,424,0,0,0,424,98,424,0,424,0,424,0,424,0,0,0,0,0,0,0,0,0,
0,0,0,0,0,0,0,0,0,0,0,242,226,226,226,178,162,146,130,210,0,114,162,146,130,226,226,226,226,210,0,0,0,0,0,0,0,0,0,0,
0,0,0,0,0,0,0,0,0,0,424,210,424,98,424,0,424,0,424,210,0,210,424,0,424,0,424,98,424,210,424,0,0,0,0,0,0,0,0,0,
0,0,0,0,0,0,0,0,0,0,0,178,162,146,130,226,226,194,0,194,0,194,0,226,226,178,162,146,130,194,0,0,0,0,0,0,0,0,0,0,
0,0,0,0,0,0,0,0,0,0,424,0,424,0,424,0,424,0,424,0,0,0,424,0,424,0,424,0,424,0,424,0,0,0,0,0,0,0,0,0,
0,0,0,0,0,0,0,0,0,0,0,0,0,0,0,0,0,0,0,0,0,0,0,0,0,0,0,0,0,0,0,0,0,0,0,0,0,0,0,0
</data>
 </layer>
 <layer id="3" name="CoCo Event Scene" width="40" height="24">
  <data encoding="csv">
0,0,0,0,0,0,0,0,1050,1051,1051,1051,1051,1051,1051,1051,1051,1051,1051,1051,1051,1051,1051,1051,1051,1051,1051,1051,1051,1051,1051,1052,0,0,0,0,0,0,0,0,
0,0,0,0,0,0,0,0,1053,1054,1055,1055,1055,1055,1055,1055,1055,1055,1055,1055,1055,1055,1055,1055,1055,1055,1055,1055,1055,1055,1055,1056,0,0,0,0,0,0,0,0,
0,0,0,0,0,0,0,0,1053,1057,1060,1060,1060,1060,1060,1060,1060,1060,1060,1060,1060,1060,1060,1060,1060,1060,1060,1060,1060,1060,1060,1056,0,0,0,0,0,0,0,0,
0,0,0,0,0,0,0,0,1053,1057,1060,1060,1278,1060,1060,1060,1060,1060,1279,1060,1060,1280,1060,1281,1282,1283,1060,1060,1060,1060,1060,1056,0,0,0,0,0,0,0,0,
0,0,0,0,0,0,0,0,1053,1057,1060,1060,1284,1285,1286,1287,1288,1289,1290,1291,1292,1293,1294,1295,1296,1297,1298,1299,1060,1060,1060,1056,0,0,0,0,0,0,0,0,
0,0,0,0,0,0,0,0,1053,1057,1060,1060,1300,1301,1302,1303,1304,1305,1306,1307,1308,1309,1310,1311,1312,1313,1313,1314,1060,1060,1060,1056,0,0,0,0,0,0,0,0,
0,0,0,0,0,0,0,0,1053,1057,1060,1060,1060,1060,1060,1060,1060,1060,1060,1060,1060,1060,1060,1060,1060,1060,1060,1060,1060,1060,1060,1056,0,0,0,0,0,0,0,0,
0,0,0,0,0,0,0,0,1053,1057,1060,1315,1315,1315,1315,1315,1315,1315,1060,1060,1060,1060,1315,1315,1315,1315,1315,1315,1315,1060,1060,1056,0,0,0,0,0,0,0,0,
0,0,0,0,0,0,0,0,1053,1057,1060,1316,1316,1316,1316,1316,1316,1316,1060,1060,1060,1060,1316,1316,1316,1316,1316,1316,1316,1060,1060,1056,0,0,0,0,0,0,0,0,
0,0,0,0,0,0,0,0,1053,1057,1060,1060,1060,1060,1060,1060,1060,1317,1318,1060,1060,1060,1060,1060,1060,1060,1060,1060,1060,1060,1060,1056,0,0,0,0,0,0,0,0,
0,0,0,0,0,0,0,0,1053,1057,1060,1060,1060,1060,1060,1060,1060,1319,1320,1060,1060,1060,1060,1060,1060,1060,1060,1060,1060,1060,1060,1056,0,0,0,0,0,0,0,0,
0,0,0,0,0,0,0,0,1053,1057,1060,1060,1060,1060,1060,1060,1060,1321,1322,1315,1315,1060,1060,1060,1060,1060,1060,1060,1060,1060,1060,1056,0,0,0,0,0,0,0,0,
0,0,0,0,0,0,0,0,1053,1057,1060,1060,1060,1060,1060,1060,1060,1060,1060,1316,1316,1060,1060,1060,1060,1060,1060,1060,1060,1060,1060,1056,0,0,0,0,0,0,0,0,
0,0,0,0,0,0,0,0,1053,1057,1060,1315,1315,1315,1315,1315,1060,1060,1060,1060,1060,1060,1060,1060,1315,1315,1315,1315,1315,1060,1060,1056,0,0,0,0,0,0,0,0,
0,0,0,0,0,0,0,0,1053,1057,1060,1316,1316,1316,1316,1316,1060,1060,1060,1060,1060,1060,1060,1060,1316,1316,1316,1316,1316,1060,1060,1056,0,0,0,0,0,0,0,0,
0,0,0,0,0,0,0,0,1053,1057,1060,1060,1060,1060,1060,1060,1060,1060,1060,1060,1060,1060,1060,1060,1060,1060,1060,1060,1060,1060,1060,1056,0,0,0,0,0,0,0,0,
0,0,0,0,0,0,0,0,1053,1057,1060,1060,1261,1267,1323,1324,1262,1325,1266,1326,1327,1325,1266,1265,1267,1323,1328,1329,1060,1060,1060,1056,0,0,0,0,0,0,0,0,
0,0,0,0,0,0,0,0,1053,1057,1060,1060,1060,1060,1060,1060,1060,1060,1060,1060,1060,1060,1060,1060,1060,1060,1060,1060,1060,1060,1060,1056,0,0,0,0,0,0,0,0,
0,0,0,0,0,0,0,0,1053,1057,1060,1060,1060,1060,1060,1060,1060,1330,1267,1326,1060,1331,1265,1323,1060,1060,1060,1060,1060,1060,1060,1056,0,0,0,0,0,0,0,0,
0,0,0,0,0,0,0,0,1053,1057,1060,1060,1060,1060,1060,1060,1060,1060,1060,1060,1060,1060,1060,1060,1060,1060,1060,1060,1060,1060,1060,1056,0,0,0,0,0,0,0,0,
0,0,0,0,0,0,0,0,1053,1057,1060,1060,1060,1273,1274,1275,1276,1332,1333,1327,1325,1264,1330,1060,1334,1326,1324,1060,1060,1060,1060,1056,0,0,0,0,0,0,0,0,
0,0,0,0,0,0,0,0,1053,1057,1060,1060,1060,1060,1060,1060,1060,1335,1336,1060,1060,1060,1060,1060,1060,1060,1060,1060,1060,1060,1060,1056,0,0,0,0,0,0,0,0,
0,0,0,0,0,0,0,0,1053,1057,1060,1060,1060,1060,1060,1060,1060,1337,1338,1060,1060,1060,1060,1060,1060,1060,1060,1060,1060,1060,1060,1056,0,0,0,0,0,0,0,0,
0,0,0,0,0,0,0,0,1234,1235,1235,1235,1235,1235,1235,1235,1235,1235,1235,1235,1235,1235,1235,1235,1235,1235,1235,1235,1235,1235,1235,1236,0,0,0,0,0,0,0,0
</data>
 </layer>
 <layer id="4" name="Arcade Maze Border" width="40" height="24">
  <data encoding="csv">
0,0,0,0,0,0,0,0,275,211,211,211,211,211,211,211,211,211,211,211,211,211,211,211,211,211,211,211,211,211,211,259,0,0,0,0,0,0,0,0,
0,0,0,0,0,0,0,0,163,242,226,226,226,226,226,226,226,226,226,226,226,226,226,226,226,226,226,226,226,226,226,195,0,0,0,0,0,0,0,0,
0,0,0,0,0,0,0,0,163,210,0,0,0,0,0,0,0,0,0,0,0,0,0,0,0,0,0,0,0,0,0,195,0,0,0,0,0,0,0,0,
0,0,0,0,0,0,0,0,163,210,0,0,0,0,0,0,0,0,0,0,0,0,0,0,0,0,0,0,0,0,0,195,0,0,0,0,0,0,0,0,
0,0,0,0,0,0,0,0,163,210,0,0,0,0,0,0,0,0,0,0,0,0,0,0,0,0,0,0,0,0,0,195,0,0,0,0,0,0,0,0,
0,0,0,0,0,0,0,0,163,210,0,0,0,0,0,0,0,0,0,0,0,0,0,0,0,0,0,0,0,0,0,195,0,0,0,0,0,0,0,0,
0,0,0,0,0,0,0,0,163,210,0,0,0,0,0,0,0,0,0,0,0,0,0,0,0,0,0,0,0,0,0,195,0,0,0,0,0,0,0,0,
0,0,0,0,0,0,0,0,163,210,0,0,0,0,0,0,0,0,0,0,0,0,0,0,0,0,0,0,0,0,0,195,0,0,0,0,0,0,0,0,
0,0,0,0,0,0,0,0,163,210,0,0,0,0,0,0,0,0,0,0,0,0,0,0,0,0,0,0,0,0,0,195,0,0,0,0,0,0,0,0,
0,0,0,0,0,0,0,0,163,210,0,0,0,0,0,0,0,0,0,0,0,0,0,0,0,0,0,0,0,0,0,195,0,0,0,0,0,0,0,0,
0,0,0,0,0,0,0,0,163,210,0,0,0,0,0,0,0,0,0,0,0,0,0,0,0,0,0,0,0,0,0,195,0,0,0,0,0,0,0,0,
0,0,0,0,0,0,0,0,163,210,0,0,0,0,0,0,0,0,0,0,0,0,0,0,0,0,0,0,0,0,0,195,0,0,0,0,0,0,0,0,
0,0,0,0,0,0,0,0,163,210,0,0,0,0,0,0,0,0,0,0,0,0,0,0,0,0,0,0,0,0,0,195,0,0,0,0,0,0,0,0,
0,0,0,0,0,0,0,0,163,210,0,0,0,0,0,0,0,0,0,0,0,0,0,0,0,0,0,0,0,0,0,195,0,0,0,0,0,0,0,0,
0,0,0,0,0,0,0,0,163,210,0,0,0,0,0,0,0,0,0,0,0,0,0,0,0,0,0,0,0,0,0,195,0,0,0,0,0,0,0,0,
0,0,0,0,0,0,0,0,163,210,0,0,0,0,0,0,0,0,0,0,0,0,0,0,0,0,0,0,0,0,0,195,0,0,0,0,0,0,0,0,
0,0,0,0,0,0,0,0,163,210,0,0,0,0,0,0,0,0,0,0,0,0,0,0,0,0,0,0,0,0,0,195,0,0,0,0,0,0,0,0,
0,0,0,0,0,0,0,0,163,210,0,0,0,0,0,0,0,0,0,0,0,0,0,0,0,0,0,0,0,0,0,195,0,0,0,0,0,0,0,0,
0,0,0,0,0,0,0,0,163,210,0,0,0,0,0,0,0,0,0,0,0,0,0,0,0,0,0,0,0,0,0,195,0,0,0,0,0,0,0,0,
0,0,0,0,0,0,0,0,163,210,0,0,0,0,0,0,0,0,0,0,0,0,0,0,0,0,0,0,0,0,0,195,0,0,0,0,0,0,0,0,
0,0,0,0,0,0,0,0,163,210,0,0,0,0,0,0,0,0,0,0,0,0,0,0,0,0,0,0,0,0,0,195,0,0,0,0,0,0,0,0,
0,0,0,0,0,0,0,0,163,210,0,0,0,0,0,0,0,0,0,0,0,0,0,0,0,0,0,0,0,0,0,195,0,0,0,0,0,0,0,0,
0,0,0,0,0,0,0,0,163,210,0,0,0,0,0,0,0,0,0,0,0,0,0,0,0,0,0,0,0,0,0,195,0,0,0,0,0,0,0,0,
0,0,0,0,0,0,0,0,227,179,179,179,179,179,179,179,179,179,179,179,179,179,179,179,179,179,179,179,179,179,179,243,0,0,0,0,0,0,0,0
</data>
 </layer>
 <layer id="5" name="CoCo Side HUD" width="40" height="24">
  <data encoding="csv">
323,307,307,307,307,307,307,307,0,0,0,0,0,0,0,0,0,0,0,0,0,0,0,0,0,0,0,0,0,0,0,0,0,0,0,0,0,0,0,0,
291,49,97,273,305,209,337,161,0,0,0,0,0,0,0,0,0,0,0,0,0,0,0,0,0,0,0,0,0,0,0,0,0,481,49,33,0,0,0,0,
1073742147,1073742131,1073742131,1073742131,1073742131,1073742131,1073742131,1073742131,0,0,0,0,0,0,0,0,0,0,0,0,0,0,0,0,0,0,0,0,0,0,0,0,0,497,497,497,497,497,497,0,
323,307,307,307,307,307,307,307,0,0,0,0,0,0,0,0,0,0,0,0,0,0,0,0,0,0,0,0,0,0,0,0,0,0,0,0,0,0,0,0,
291,273,482,33,65,337,0,0,0,0,0,0,0,0,0,0,0,0,0,0,0,0,0,0,0,0,0,0,0,0,0,0,0,33,113,97,0,0,0,0,
1073742147,1073742131,1073742131,1073742131,1073742131,1073742131,1073742131,1073742131,0,0,0,0,0,0,0,0,0,0,0,0,0,0,0,0,0,0,0,0,0,0,0,0,0,161,337,289,466,321,17,241,
323,307,307,307,307,307,307,307,0,0,0,0,0,0,0,0,0,0,0,0,0,0,0,0,0,0,0,0,0,0,0,0,0,497,497,497,497,497,497,0,
291,147,465,147,449,147,417,0,0,0,0,0,0,0,0,0,0,0,0,0,0,0,0,0,0,0,0,0,0,0,0,0,0,0,0,0,0,0,0,0,
1073742147,1073742131,1073742131,1073742131,1073742131,1073742131,1073742131,1073742131,0,0,0,0,0,0,0,0,0,0,0,0,0,0,0,0,0,0,0,0,0,0,0,0,0,305,65,273,289,209,33,0,
0,0,0,0,0,0,0,0,0,0,0,0,0,0,0,0,0,0,0,0,0,0,0,0,0,0,0,0,0,0,0,0,0,497,0,0,0,0,0,0,
0,0,0,0,0,0,0,0,0,0,0,0,0,0,0,0,0,0,0,0,0,0,0,0,0,0,0,0,0,0,0,0,0,0,0,0,0,0,0,0,
0,0,0,0,0,0,0,0,0,0,0,0,0,0,0,0,0,0,0,0,0,0,0,0,0,0,0,0,0,0,0,0,0,97,337,65,33,0,497,481,
0,0,0,0,0,0,0,0,0,0,0,0,0,0,0,0,0,0,0,0,0,0,0,0,0,0,0,0,0,0,0,0,0,0,0,0,0,0,0,0,
0,0,0,0,0,0,0,0,0,0,0,0,0,0,0,0,0,0,0,0,0,0,0,0,0,0,0,0,0,0,0,0,0,0,338,497,497,497,497,0,
0,0,0,0,0,0,0,0,0,0,0,0,0,0,0,0,0,0,0,0,0,0,0,0,0,0,0,0,0,0,0,0,0,0,0,0,0,0,0,0,
0,0,0,0,0,0,0,0,0,0,0,0,0,0,0,0,0,0,0,0,0,0,0,0,0,0,0,0,0,0,0,0,0,456,440,456,440,456,440,0,
0,0,0,0,0,0,0,0,0,0,0,0,0,0,0,0,0,0,0,0,0,0,0,0,0,0,0,0,0,0,0,0,0,488,472,488,472,488,472,0,
0,0,0,0,0,0,0,0,0,0,0,0,0,0,0,0,0,0,0,0,0,0,0,0,0,0,0,0,0,0,0,0,0,456,440,456,440,456,440,0,
0,0,0,0,0,0,0,0,0,0,0,0,0,0,0,0,0,0,0,0,0,0,0,0,0,0,0,0,0,0,0,0,0,488,472,488,472,488,472,0,
0,0,0,0,0,0,0,0,0,0,0,0,0,0,0,0,0,0,0,0,0,0,0,0,0,0,0,0,0,0,0,0,0,456,440,456,440,456,440,0,
0,0,0,0,0,0,0,0,0,0,0,0,0,0,0,0,0,0,0,0,0,0,0,0,0,0,0,0,0,0,0,0,0,488,472,488,472,488,472,0,
0,0,0,0,0,0,0,0,0,0,0,0,0,0,0,0,0,0,0,0,0,0,0,0,0,0,0,0,0,0,0,0,0,456,440,456,440,456,440,0,
0,0,0,0,0,0,0,0,0,0,0,0,0,0,0,0,0,0,0,0,0,0,0,0,0,0,0,0,0,0,0,0,0,488,472,488,472,488,472,0,
0,0,0,0,0,0,0,0,0,0,0,0,0,0,0,0,0,0,0,0,0,0,0,0,0,0,0,0,0,0,0,0,0,0,0,0,0,0,0,0
</data>
 </layer>
 <objectgroup id="6" name="Ladybug Path" color="#ff00ff" opacity="0.85" visible="1" draworder="topdown">
  <object id="1" name="Ladybug traversal" x="73" y="9" width="96" height="182">
   <properties>
    <property name="actor" value="Ladybug" />
    <property name="point-anchor" value="16x16 sprite top-left" />
    <property name="path-order" value="start-to-finish" />
    <property name="sample-frame-range" value="event offsets 108-507" />
   </properties>
   <polyline points="80,0 80,64 64,64 64,96 96,96 96,64 0,64 0,182" />
  </object>
 </objectgroup>
</map>