<?xml version='1.0' encoding='utf-8'?>
<map version="1.10" tiledversion="1.12.2" orientation="orthogonal" renderorder="right-down" width="40" height="24" tilewidth="8" tileheight="8" infinite="0" nextlayerid="7" nextobjectid="2">
 <properties>
  <property name="screen-role" value="coco-special-event" />
  <property name="arcade-reference" value="MAME 0.220 ladybug frame 1000 (SPECIAL event +300)" />
  <property name="adaptation" value="Arcade event scene rows 2-25 centered at CoCo columns 8-31; side HUD and maze border reuse tiled/coco-screen.tmx layers." />
  <property name="path-transform" value="Arcade path point (x,y) maps to CoCo (x+64,y-16) pixels." />
  <property name="source-frame-bgra32-sha256" value="2efeb3a57672bb7442204dadb27988b1803ebb355ea6a7576d1de2fa37bd4620" />
  <property name="path-evidence-sha256" value="da0ad970590134b69de77d0461369197d20f169eff29d7aaa35586833e34c180" />
  <property name="event-tileset-png-sha256" value="c05ac1c9ba07c4c45f058a5003e7d304aab1cc091c1fce7825b5aa5b98fcebc8" />
 </properties>
 <tileset firstgid="1" source="chars_raw2bpp.tsx" />
 <tileset firstgid="513" source="sprites_raw2bpp.tsx" />
 <tileset firstgid="1025" source="arcade-event-tiles.tsx" />
 <layer id="1" name="Background" width="40" height="24">
  <data encoding="csv">
8,8,8,8,8,8,8,8,8,8,8,8,8,8,8,8,8,8,8,8,8,8,8,8,8,8,8,8,8,8,8,8,8,8,8,8,8,8,8,8,
8,8,8,8,8,8,8,8,8,8,8,8,8,8,8,8,8,8,8,8,8,8,8,8,8,8,8,8,8,8,8,8,8,8,8,8,8,8,8,8,
8,8,8,8,8,8,8,8,8,8,8,8,8,8,8,8,8,8,8,8,8,8,8,8,8,8,8,8,8,8,8,8,8,8,8,8,8,8,8,8,
8,8,8,8,8,8,8,8,8,8,8,8,8,8,8,8,8,8,8,8,8,8,8,8,8,8,8,8,8,8,8,8,8,8,8,8,8,8,8,8,
8,8,8,8,8,8,8,8,8,8,8,8,8,8,8,8,8,8,8,8,8,8,8,8,8,8,8,8,8,8,8,8,8,8,8,8,8,8,8,8,
8,8,8,8,8,8,8,8,8,8,8,8,8,8,8,8,8,8,8,8,8,8,8,8,8,8,8,8,8,8,8,8,8,8,8,8,8,8,8,8,
8,8,8,8,8,8,8,8,8,8,8,8,8,8,8,8,8,8,8,8,8,8,8,8,8,8,8,8,8,8,8,8,8,8,8,8,8,8,8,8,
8,8,8,8,8,8,8,8,8,8,8,8,8,8,8,8,8,8,8,8,8,8,8,8,8,8,8,8,8,8,8,8,8,8,8,8,8,8,8,8,
8,8,8,8,8,8,8,8,8,8,8,8,8,8,8,8,8,8,8,8,8,8,8,8,8,8,8,8,8,8,8,8,8,8,8,8,8,8,8,8,
8,8,8,8,8,8,8,8,8,8,8,8,8,8,8,8,8,8,8,8,8,8,8,8,8,8,8,8,8,8,8,8,8,8,8,8,8,8,8,8,
8,8,8,8,8,8,8,8,8,8,8,8,8,8,8,8,8,8,8,8,8,8,8,8,8,8,8,8,8,8,8,8,8,8,8,8,8,8,8,8,
8,8,8,8,8,8,8,8,8,8,8,8,8,8,8,8,8,8,8,8,8,8,8,8,8,8,8,8,8,8,8,8,8,8,8,8,8,8,8,8,
8,8,8,8,8,8,8,8,8,8,8,8,8,8,8,8,8,8,8,8,8,8,8,8,8,8,8,8,8,8,8,8,8,8,8,8,8,8,8,8,
8,8,8,8,8,8,8,8,8,8,8,8,8,8,8,8,8,8,8,8,8,8,8,8,8,8,8,8,8,8,8,8,8,8,8,8,8,8,8,8,
8,8,8,8,8,8,8,8,8,8,8,8,8,8,8,8,8,8,8,8,8,8,8,8,8,8,8,8,8,8,8,8,8,8,8,8,8,8,8,8,
8,8,8,8,8,8,8,8,8,8,8,8,8,8,8,8,8,8,8,8,8,8,8,8,8,8,8,8,8,8,8,8,8,8,8,8,8,8,8,8,
8,8,8,8,8,8,8,8,8,8,8,8,8,8,8,8,8,8,8,8,8,8,8,8,8,8,8,8,8,8,8,8,8,8,8,8,8,8,8,8,
8,8,8,8,8,8,8,8,8,8,8,8,8,8,8,8,8,8,8,8,8,8,8,8,8,8,8,8,8,8,8,8,8,8,8,8,8,8,8,8,
8,8,8,8,8,8,8,8,8,8,8,8,8,8,8,8,8,8,8,8,8,8,8,8,8,8,8,8,8,8,8,8,8,8,8,8,8,8,8,8,
8,8,8,8,8,8,8,8,8,8,8,8,8,8,8,8,8,8,8,8,8,8,8,8,8,8,8,8,8,8,8,8,8,8,8,8,8,8,8,8,
8,8,8,8,8,8,8,8,8,8,8,8,8,8,8,8,8,8,8,8,8,8,8,8,8,8,8,8,8,8,8,8,8,8,8,8,8,8,8,8,
8,8,8,8,8,8,8,8,8,8,8,8,8,8,8,8,8,8,8,8,8,8,8,8,8,8,8,8,8,8,8,8,8,8,8,8,8,8,8,8,
8,8,8,8,8,8,8,8,8,8,8,8,8,8,8,8,8,8,8,8,8,8,8,8,8,8,8,8,8,8,8,8,8,8,8,8,8,8,8,8,
8,8,8,8,8,8,8,8,8,8,8,8,8,8,8,8,8,8,8,8,8,8,8,8,8,8,8,8,8,8,8,8,8,8,8,8,8,8,8,8
</data>
 </layer>
 <layer id="2" name="Maze and Panel Background" width="40" height="24">
  <data encoding="csv">
0,0,0,0,0,0,0,0,0,0,0,0,0,0,0,0,0,0,0,0,0,0,0,0,0,0,0,0,0,0,0,0,0,0,0,0,0,0,0,0,
0,0,0,0,0,0,0,0,0,0,0,0,0,0,0,0,0,0,0,0,0,0,0,0,0,0,0,0,0,0,0,0,0,0,0,0,0,0,0,0,
0,0,0,0,0,0,0,0,0,0,424,0,424,98,424,0,424,0,424,0,424,0,424,0,424,0,424,98,424,0,424,0,0,0,0,0,0,0,0,0,
0,0,0,0,0,0,0,0,0,0,0,114,162,146,130,210,0,50,226,210,0,242,226,66,0,114,162,146,130,210,0,0,0,0,0,0,0,0,0,0,
0,0,0,0,0,0,0,0,0,0,424,210,424,0,424,210,424,34,424,210,424,210,424,34,424,210,424,0,424,210,424,0,0,0,0,0,0,0,0,0,
0,0,0,0,0,0,0,0,0,0,0,50,226,194,0,194,499,18,0,194,0,194,499,18,0,194,0,226,226,66,0,0,0,0,0,0,0,0,0,0,
0,0,0,0,0,0,0,0,0,0,424,34,424,0,424,98,424,2,424,0,424,0,424,2,424,98,424,0,424,34,424,0,0,0,0,0,0,0,0,0,
0,0,0,0,0,0,0,0,0,0,499,18,0,114,162,146,130,226,226,210,0,242,226,178,162,146,130,210,499,18,0,0,0,0,0,0,0,0,0,0,
0,0,0,0,0,0,0,0,0,0,424,2,424,210,424,0,424,98,424,210,424,210,424,98,424,0,424,210,424,2,424,0,0,0,0,0,0,0,0,0,
0,0,0,0,0,0,0,0,0,0,0,226,226,194,0,114,162,146,130,194,0,178,162,146,130,210,0,226,226,194,0,0,0,0,0,0,0,0,0,0,
0,0,0,0,0,0,0,0,0,0,424,0,424,0,424,210,424,0,424,0,424,0,424,0,424,210,424,0,424,0,424,0,0,0,0,0,0,0,0,0,
0,0,0,0,0,0,0,0,0,0,0,226,226,210,0,66,0,210,0,210,0,210,0,210,0,66,0,242,226,194,0,0,0,0,0,0,0,0,0,0,
0,0,0,0,0,0,0,0,0,0,424,0,424,210,424,34,424,210,424,210,0,210,424,210,424,34,424,210,424,0,424,0,0,0,0,0,0,0,0,0,
0,0,0,0,0,0,0,0,0,0,0,210,0,66,499,18,0,66,0,226,226,194,0,66,499,18,0,66,0,210,0,0,0,0,0,0,0,0,0,0,
0,0,0,0,0,0,0,0,0,0,424,210,424,34,424,2,424,34,424,0,424,0,424,34,424,2,424,34,424,210,424,0,0,0,0,0,0,0,0,0,
0,0,0,0,0,0,0,0,0,0,0,210,499,18,0,210,499,18,0,210,0,210,499,18,0,210,499,18,0,210,0,0,0,0,0,0,0,0,0,0,
0,0,0,0,0,0,0,0,0,0,424,210,424,2,424,210,424,2,424,210,424,210,424,2,424,210,424,2,424,210,424,0,0,0,0,0,0,0,0,0,
0,0,0,0,0,0,0,0,0,0,0,226,226,226,0,194,0,226,226,194,0,226,226,194,0,194,0,226,226,194,0,0,0,0,0,0,0,0,0,0,
0,0,0,0,0,0,0,0,0,0,424,0,424,0,424,0,424,98,424,0,0,0,424,98,424,0,424,0,424,0,424,0,0,0,0,0,0,0,0,0,
0,0,0,0,0,0,0,0,0,0,0,242,226,226,226,178,162,146,130,210,0,114,162,146,130,226,226,226,226,210,0,0,0,0,0,0,0,0,0,0,
0,0,0,0,0,0,0,0,0,0,424,210,424,98,424,0,424,0,424,210,0,210,424,0,424,0,424,98,424,210,424,0,0,0,0,0,0,0,0,0,
0,0,0,0,0,0,0,0,0,0,0,178,162,146,130,226,226,194,0,194,0,194,0,226,226,178,162,146,130,194,0,0,0,0,0,0,0,0,0,0,
0,0,0,0,0,0,0,0,0,0,424,0,424,0,424,0,424,0,424,0,0,0,424,0,424,0,424,0,424,0,424,0,0,0,0,0,0,0,0,0,
0,0,0,0,0,0,0,0,0,0,0,0,0,0,0,0,0,0,0,0,0,0,0,0,0,0,0,0,0,0,0,0,0,0,0,0,0,0,0,0
</data>
 </layer>
 <layer id="3" name="CoCo Event Scene" width="40" height="24">
  <data encoding="csv">
0,0,0,0,0,0,0,0,1050,1051,1051,1051,1051,1051,1051,1051,1051,1051,1051,1051,1051,1051,1051,1051,1051,1051,1051,1051,1051,1051,1051,1052,0,0,0,0,0,0,0,0,
0,0,0,0,0,0,0,0,1053,1054,1055,1055,1055,1055,1055,1055,1055,1055,1055,1055,1055,1055,1055,1055,1055,1055,1055,1055,1055,1055,1055,1056,0,0,0,0,0,0,0,0,
0,0,0,0,0,0,0,0,1053,1057,1058,1059,1060,1060,1060,1060,1060,1060,1060,1060,1060,1060,1060,1060,1060,1060,1060,1060,1060,1060,1060,1056,0,0,0,0,0,0,0,0,
0,0,0,0,0,0,0,0,1053,1057,1061,1062,1060,1060,1060,1060,1060,1060,1060,1060,1060,1060,1060,1060,1060,1060,1060,1060,1060,1060,1060,1056,0,0,0,0,0,0,0,0,
0,0,0,0,0,0,0,0,1053,1057,1060,1060,1060,1060,1060,1060,1060,1060,1060,1060,1060,1060,1060,1060,1060,1060,1060,1060,1060,1060,1060,1056,0,0,0,0,0,0,0,0,
0,0,0,0,0,0,0,0,1053,1057,1060,1060,1060,1060,1060,1060,1060,1060,1060,1060,1060,1060,1060,1060,1060,1060,1060,1060,1060,1060,1060,1056,0,0,0,0,0,0,0,0,
0,0,0,0,0,0,0,0,1053,1057,1060,1060,1060,1060,1060,1060,1060,1060,1060,1060,1060,1060,1060,1060,1060,1060,1060,1060,1060,1060,1060,1056,0,0,0,0,0,0,0,0,
0,0,0,0,0,0,0,0,1053,1057,1060,1060,1060,1060,1060,1060,1060,1060,1060,1060,1060,1060,1060,1060,1060,1060,1060,1060,1060,1060,1060,1056,0,0,0,0,0,0,0,0,
0,0,0,0,0,0,0,0,1053,1057,1060,1060,1060,1060,1060,1060,1060,1060,1063,1060,1060,1063,1060,1060,1060,1060,1060,1060,1060,1060,1060,1056,0,0,0,0,0,0,0,0,
0,0,0,0,0,0,0,0,1053,1057,1060,1060,1060,1060,1060,1060,1063,1060,1064,1065,1066,1067,1060,1063,1060,1060,1060,1060,1060,1060,1060,1056,0,0,0,0,0,0,0,0,
0,0,0,0,0,0,0,0,1053,1057,1060,1060,1060,1060,1060,1060,1060,1060,1068,1069,1070,1071,1060,1060,1060,1060,1060,1060,1060,1060,1060,1056,0,0,0,0,0,0,0,0,
0,0,0,0,0,0,0,0,1053,1057,1060,1060,1060,1060,1060,1063,1060,1060,1072,1073,1074,1075,1060,1060,1063,1060,1060,1060,1060,1060,1060,1056,0,0,0,0,0,0,0,0,
0,0,0,0,0,0,0,0,1053,1057,1060,1060,1060,1060,1060,1060,1060,1060,1076,1077,1078,1079,1060,1060,1060,1060,1060,1060,1060,1060,1060,1056,0,0,0,0,0,0,0,0,
0,0,0,0,0,0,0,0,1053,1057,1060,1060,1060,1060,1060,1060,1080,1081,1082,1083,1084,1085,1086,1087,1060,1060,1060,1060,1060,1060,1060,1056,0,0,0,0,0,0,0,0,
0,0,0,0,0,0,0,0,1053,1057,1060,1060,1060,1060,1060,1060,1088,1089,1090,1091,1092,1093,1094,1095,1060,1060,1060,1060,1060,1060,1060,1056,0,0,0,0,0,0,0,0,
0,0,0,0,0,0,0,0,1053,1057,1096,1097,1060,1060,1060,1060,1098,1099,1100,1101,1102,1103,1104,1105,1060,1060,1060,1060,1106,1107,1060,1056,0,0,0,0,0,0,0,0,
0,0,0,0,0,0,0,0,1053,1057,1108,1109,1110,1111,1060,1060,1112,1113,1114,1115,1116,1117,1118,1119,1060,1060,1120,1121,1122,1123,1060,1056,0,0,0,0,0,0,0,0,
0,0,0,0,0,0,0,0,1053,1057,1124,1125,1126,1127,1128,1129,1130,1131,1132,1133,1134,1135,1136,1137,1138,1139,1140,1141,1142,1143,1060,1056,0,0,0,0,0,0,0,0,
0,0,0,0,0,0,0,0,1053,1057,1144,1145,1146,1147,1148,1149,1150,1151,1152,1153,1154,1155,1156,1157,1158,1159,1160,1161,1162,1163,1060,1056,0,0,0,0,0,0,0,0,
0,0,0,0,0,0,0,0,1053,1057,1164,1165,1166,1167,1168,1169,1170,1171,1172,1173,1174,1175,1176,1177,1178,1179,1180,1181,1182,1183,1184,1056,0,0,0,0,0,0,0,0,
0,0,0,0,0,0,0,0,1053,1057,1185,1186,1187,1188,1189,1190,1191,1192,1193,1194,1195,1196,1197,1198,1199,1200,1201,1202,1203,1204,1205,1056,0,0,0,0,0,0,0,0,
0,0,0,0,0,0,0,0,1053,1057,1206,1207,1208,1209,1210,1211,1212,1213,1214,1214,1214,1214,1215,1216,1217,1218,1219,1220,1221,1222,1223,1056,0,0,0,0,0,0,0,0,
0,0,0,0,0,0,0,0,1053,1057,1224,1225,1226,1227,1228,1214,1214,1214,1214,1214,1214,1214,1214,1214,1214,1229,1230,1231,1232,1233,1060,1056,0,0,0,0,0,0,0,0,
0,0,0,0,0,0,0,0,1234,1235,1235,1235,1235,1235,1235,1235,1235,1235,1235,1235,1235,1235,1235,1235,1235,1235,1235,1235,1235,1235,1235,1236,0,0,0,0,0,0,0,0
</data>
 </layer>
 <layer id="4" name="Arcade Maze Border" width="40" height="24">
  <data encoding="csv">
0,0,0,0,0,0,0,0,275,211,211,211,211,211,211,211,211,211,211,211,211,211,211,211,211,211,211,211,211,211,211,259,0,0,0,0,0,0,0,0,
0,0,0,0,0,0,0,0,163,242,226,226,226,226,226,226,226,226,226,226,226,226,226,226,226,226,226,226,226,226,226,195,0,0,0,0,0,0,0,0,
0,0,0,0,0,0,0,0,163,210,0,0,0,0,0,0,0,0,0,0,0,0,0,0,0,0,0,0,0,0,0,195,0,0,0,0,0,0,0,0,
0,0,0,0,0,0,0,0,163,210,0,0,0,0,0,0,0,0,0,0,0,0,0,0,0,0,0,0,0,0,0,195,0,0,0,0,0,0,0,0,
0,0,0,0,0,0,0,0,163,210,0,0,0,0,0,0,0,0,0,0,0,0,0,0,0,0,0,0,0,0,0,195,0,0,0,0,0,0,0,0,
0,0,0,0,0,0,0,0,163,210,0,0,0,0,0,0,0,0,0,0,0,0,0,0,0,0,0,0,0,0,0,195,0,0,0,0,0,0,0,0,
0,0,0,0,0,0,0,0,163,210,0,0,0,0,0,0,0,0,0,0,0,0,0,0,0,0,0,0,0,0,0,195,0,0,0,0,0,0,0,0,
0,0,0,0,0,0,0,0,163,210,0,0,0,0,0,0,0,0,0,0,0,0,0,0,0,0,0,0,0,0,0,195,0,0,0,0,0,0,0,0,
0,0,0,0,0,0,0,0,163,210,0,0,0,0,0,0,0,0,0,0,0,0,0,0,0,0,0,0,0,0,0,195,0,0,0,0,0,0,0,0,
0,0,0,0,0,0,0,0,163,210,0,0,0,0,0,0,0,0,0,0,0,0,0,0,0,0,0,0,0,0,0,195,0,0,0,0,0,0,0,0,
0,0,0,0,0,0,0,0,163,210,0,0,0,0,0,0,0,0,0,0,0,0,0,0,0,0,0,0,0,0,0,195,0,0,0,0,0,0,0,0,
0,0,0,0,0,0,0,0,163,210,0,0,0,0,0,0,0,0,0,0,0,0,0,0,0,0,0,0,0,0,0,195,0,0,0,0,0,0,0,0,
0,0,0,0,0,0,0,0,163,210,0,0,0,0,0,0,0,0,0,0,0,0,0,0,0,0,0,0,0,0,0,195,0,0,0,0,0,0,0,0,
0,0,0,0,0,0,0,0,163,210,0,0,0,0,0,0,0,0,0,0,0,0,0,0,0,0,0,0,0,0,0,195,0,0,0,0,0,0,0,0,
0,0,0,0,0,0,0,0,163,210,0,0,0,0,0,0,0,0,0,0,0,0,0,0,0,0,0,0,0,0,0,195,0,0,0,0,0,0,0,0,
0,0,0,0,0,0,0,0,163,210,0,0,0,0,0,0,0,0,0,0,0,0,0,0,0,0,0,0,0,0,0,195,0,0,0,0,0,0,0,0,
0,0,0,0,0,0,0,0,163,210,0,0,0,0,0,0,0,0,0,0,0,0,0,0,0,0,0,0,0,0,0,195,0,0,0,0,0,0,0,0,
0,0,0,0,0,0,0,0,163,210,0,0,0,0,0,0,0,0,0,0,0,0,0,0,0,0,0,0,0,0,0,195,0,0,0,0,0,0,0,0,
0,0,0,0,0,0,0,0,163,210,0,0,0,0,0,0,0,0,0,0,0,0,0,0,0,0,0,0,0,0,0,195,0,0,0,0,0,0,0,0,
0,0,0,0,0,0,0,0,163,210,0,0,0,0,0,0,0,0,0,0,0,0,0,0,0,0,0,0,0,0,0,195,0,0,0,0,0,0,0,0,
0,0,0,0,0,0,0,0,163,210,0,0,0,0,0,0,0,0,0,0,0,0,0,0,0,0,0,0,0,0,0,195,0,0,0,0,0,0,0,0,
0,0,0,0,0,0,0,0,163,210,0,0,0,0,0,0,0,0,0,0,0,0,0,0,0,0,0,0,0,0,0,195,0,0,0,0,0,0,0,0,
0,0,0,0,0,0,0,0,163,210,0,0,0,0,0,0,0,0,0,0,0,0,0,0,0,0,0,0,0,0,0,195,0,0,0,0,0,0,0,0,
0,0,0,0,0,0,0,0,227,179,179,179,179,179,179,179,179,179,179,179,179,179,179,179,179,179,179,179,179,179,179,243,0,0,0,0,0,0,0,0
</data>
 </layer>
 <layer id="5" name="CoCo Side HUD" width="40" height="24">
  <data encoding="csv">
323,307,307,307,307,307,307,307,0,0,0,0,0,0,0,0,0,0,0,0,0,0,0,0,0,0,0,0,0,0,0,0,0,0,0,0,0,0,0,0,
291,49,97,273,305,209,337,161,0,0,0,0,0,0,0,0,0,0,0,0,0,0,0,0,0,0,0,0,0,0,0,0,0,481,49,33,0,0,0,0,
1073742147,1073742131,1073742131,1073742131,1073742131,1073742131,1073742131,1073742131,0,0,0,0,0,0,0,0,0,0,0,0,0,0,0,0,0,0,0,0,0,0,0,0,0,497,497,497,497,497,497,0,
323,307,307,307,307,307,307,307,0,0,0,0,0,0,0,0,0,0,0,0,0,0,0,0,0,0,0,0,0,0,0,0,0,0,0,0,0,0,0,0,
291,273,482,33,65,337,0,0,0,0,0,0,0,0,0,0,0,0,0,0,0,0,0,0,0,0,0,0,0,0,0,0,0,33,113,97,0,0,0,0,
1073742147,1073742131,1073742131,1073742131,1073742131,1073742131,1073742131,1073742131,0,0,0,0,0,0,0,0,0,0,0,0,0,0,0,0,0,0,0,0,0,0,0,0,0,161,337,289,466,321,17,241,
323,307,307,307,307,307,307,307,0,0,0,0,0,0,0,0,0,0,0,0,0,0,0,0,0,0,0,0,0,0,0,0,0,497,497,497,497,497,497,0,
291,147,465,147,449,147,417,0,0,0,0,0,0,0,0,0,0,0,0,0,0,0,0,0,0,0,0,0,0,0,0,0,0,0,0,0,0,0,0,0,
1073742147,1073742131,1073742131,1073742131,1073742131,1073742131,1073742131,1073742131,0,0,0,0,0,0,0,0,0,0,0,0,0,0,0,0,0,0,0,0,0,0,0,0,0,305,65,273,289,209,33,0,
0,0,0,0,0,0,0,0,0,0,0,0,0,0,0,0,0,0,0,0,0,0,0,0,0,0,0,0,0,0,0,0,0,497,0,0,0,0,0,0,
0,0,0,0,0,0,0,0,0,0,0,0,0,0,0,0,0,0,0,0,0,0,0,0,0,0,0,0,0,0,0,0,0,0,0,0,0,0,0,0,
0,0,0,0,0,0,0,0,0,0,0,0,0,0,0,0,0,0,0,0,0,0,0,0,0,0,0,0,0,0,0,0,0,97,337,65,33,0,497,481,
0,0,0,0,0,0,0,0,0,0,0,0,0,0,0,0,0,0,0,0,0,0,0,0,0,0,0,0,0,0,0,0,0,0,0,0,0,0,0,0,
0,0,0,0,0,0,0,0,0,0,0,0,0,0,0,0,0,0,0,0,0,0,0,0,0,0,0,0,0,0,0,0,0,0,338,497,497,497,497,0,
0,0,0,0,0,0,0,0,0,0,0,0,0,0,0,0,0,0,0,0,0,0,0,0,0,0,0,0,0,0,0,0,0,0,0,0,0,0,0,0,
0,0,0,0,0,0,0,0,0,0,0,0,0,0,0,0,0,0,0,0,0,0,0,0,0,0,0,0,0,0,0,0,0,456,440,456,440,456,440,0,
0,0,0,0,0,0,0,0,0,0,0,0,0,0,0,0,0,0,0,0,0,0,0,0,0,0,0,0,0,0,0,0,0,488,472,488,472,488,472,0,
0,0,0,0,0,0,0,0,0,0,0,0,0,0,0,0,0,0,0,0,0,0,0,0,0,0,0,0,0,0,0,0,0,456,440,456,440,456,440,0,
0,0,0,0,0,0,0,0,0,0,0,0,0,0,0,0,0,0,0,0,0,0,0,0,0,0,0,0,0,0,0,0,0,488,472,488,472,488,472,0,
0,0,0,0,0,0,0,0,0,0,0,0,0,0,0,0,0,0,0,0,0,0,0,0,0,0,0,0,0,0,0,0,0,456,440,456,440,456,440,0,
0,0,0,0,0,0,0,0,0,0,0,0,0,0,0,0,0,0,0,0,0,0,0,0,0,0,0,0,0,0,0,0,0,488,472,488,472,488,472,0,
0,0,0,0,0,0,0,0,0,0,0,0,0,0,0,0,0,0,0,0,0,0,0,0,0,0,0,0,0,0,0,0,0,456,440,456,440,456,440,0,
0,0,0,0,0,0,0,0,0,0,0,0,0,0,0,0,0,0,0,0,0,0,0,0,0,0,0,0,0,0,0,0,0,488,472,488,472,488,472,0,
0,0,0,0,0,0,0,0,0,0,0,0,0,0,0,0,0,0,0,0,0,0,0,0,0,0,0,0,0,0,0,0,0,0,0,0,0,0,0,0
</data>
 </layer>
 <objectgroup id="6" name="Ladybug Path" color="#ff00ff" opacity="0.85" visible="1" draworder="topdown">
  <object id="1" name="Ladybug traversal" x="80" y="16" width="153" height="139">
   <properties>
    <property name="actor" value="Ladybug" />
    <property name="point-anchor" value="16x16 sprite top-left" />
    <property name="path-order" value="start-to-finish" />
    <property name="sample-frame-range" value="event offsets 307-599" />
   </properties>
   <polyline points="153,139 0,139 0,0" />
  </object>
 </objectgroup>
</map>