<?xml version="1.0" encoding="UTF-8"?>
<map version="1.10" tiledversion="1.12.2" orientation="orthogonal" renderorder="right-down" width="40" height="24" tilewidth="8" tileheight="8" infinite="0" nextlayerid="3" nextobjectid="1"><properties><property name="screen-role" value="instructions" /><property name="arcade-reference" value="MAME 0.220 ladybug frame 1000" /><property name="adaptation" value="Arcade rows 2-25 centered at CoCo columns 8-31 with the established side-HUD adaptation." /></properties><tileset firstgid="1" source="chars_raw2bpp.tsx" /><layer id="1" name="Instructions Panel" width="40" height="24"><data encoding="csv">
8,8,8,8,8,8,8,8,323,307,307,307,307,307,307,307,307,323,307,307,307,307,307,307,323,307,307,307,307,307,307,307,8,8,8,8,8,8,8,8,
8,8,8,8,8,8,8,8,291,49,97,273,305,209,337,161,291,291,273,482,33,65,337,291,291,147,465,147,449,147,417,291,8,8,8,8,8,8,8,8,
8,8,8,8,8,8,8,8,275,211,211,211,211,211,211,211,211,211,211,211,211,211,211,211,211,211,211,211,211,211,211,259,8,8,8,8,8,8,8,8,
8,8,8,8,8,8,8,8,163,242,226,226,226,226,226,226,226,226,226,226,226,226,226,226,226,226,226,226,226,226,226,195,8,8,8,8,8,8,8,8,
8,8,8,8,8,8,8,8,163,210,8,8,8,8,8,8,8,8,8,8,8,8,8,8,8,8,8,8,8,8,8,195,8,8,8,8,8,8,8,8,
8,8,8,8,8,8,8,8,163,210,8,8,8,8,8,209,129,49,33,65,17,305,33,209,113,129,8,8,8,8,8,195,8,8,8,8,8,8,8,8,
8,8,8,8,8,8,8,8,163,210,8,8,8,8,8,8,8,8,8,8,8,8,8,8,8,8,8,8,8,8,8,195,8,8,8,8,8,8,8,8,
8,8,8,8,8,8,8,8,163,210,8,8,8,8,8,8,8,168,260,232,388,232,388,8,8,8,8,8,8,8,8,195,8,8,8,8,8,8,8,8,
8,8,8,8,8,8,8,8,163,210,8,8,8,8,8,8,8,5,500,197,484,69,19,8,8,8,8,8,8,8,8,195,8,8,8,8,8,8,8,8,
8,8,8,8,8,8,8,8,163,210,8,8,8,8,8,8,8,8,8,8,8,8,8,8,8,8,8,8,8,8,8,195,8,8,8,8,8,8,8,8,
8,8,8,8,8,8,8,8,163,210,8,8,8,232,420,232,388,232,420,232,420,216,356,232,388,200,324,8,8,8,8,195,8,8,8,8,8,8,8,8,
8,8,8,8,8,8,8,8,163,210,8,8,8,229,99,197,83,165,67,133,51,101,35,69,19,133,51,8,8,8,8,195,8,8,8,8,8,8,8,8,
8,8,8,8,8,8,8,8,163,210,8,8,8,8,8,8,8,8,8,8,8,8,8,8,8,8,8,8,8,8,8,195,8,8,8,8,8,8,8,8,
8,8,8,8,8,8,8,8,163,210,8,8,8,264,228,8,8,264,228,8,8,264,228,8,8,8,8,8,248,196,8,195,8,8,8,8,8,8,8,8,
8,8,8,8,8,8,8,8,163,210,8,8,8,486,468,8,8,486,468,8,8,486,468,8,8,8,8,8,454,452,8,195,8,8,8,8,8,8,8,8,
8,8,8,8,8,8,8,8,163,210,8,8,8,8,8,8,8,8,8,8,8,8,8,8,8,8,8,8,8,8,8,195,8,8,8,8,8,8,8,8,
8,8,8,8,8,8,8,8,163,210,8,8,8,8,8,8,8,8,8,8,8,8,8,8,8,8,8,8,8,8,8,195,8,8,8,8,8,8,8,8,
8,8,8,8,8,8,8,8,163,210,8,8,8,8,424,8,8,481,497,8,97,113,209,129,33,49,8,8,8,8,8,195,8,8,8,8,8,8,8,8,
8,8,8,8,8,8,8,8,163,210,8,8,8,8,8,8,8,8,8,8,8,8,8,8,8,8,8,8,8,8,8,195,8,8,8,8,8,8,8,8,
8,8,8,8,8,8,8,8,163,210,8,8,8,184,292,8,8,8,8,8,8,8,8,8,8,8,8,8,8,8,8,195,8,8,8,8,8,8,8,8,
8,8,8,8,8,8,8,8,163,210,8,8,8,37,3,8,481,497,497,8,97,113,209,129,33,49,8,8,8,8,8,195,8,8,8,8,8,8,8,8,
8,8,8,8,8,8,8,8,163,210,8,8,8,8,8,8,8,8,8,8,8,8,8,8,8,8,8,8,8,8,8,195,8,8,8,8,8,8,8,8,
8,8,8,8,8,8,8,8,163,210,8,8,8,8,8,8,8,8,8,8,8,8,8,8,8,8,8,8,8,8,8,195,8,8,8,8,8,8,8,8,
8,8,8,8,8,8,8,8,163,210,8,8,8,8,8,8,8,8,8,8,8,8,8,8,8,8,8,8,8,8,8,195,8,8,8,8,8,8,8,8
</data></layer><layer id="2" name="CoCo Side HUD" width="40" height="24">
  <data encoding="csv">
323,307,307,307,307,307,307,307,0,0,0,0,0,0,0,0,0,0,0,0,0,0,0,0,0,0,0,0,0,0,0,0,0,0,0,0,0,0,0,0,
291,49,97,273,305,209,337,161,0,0,0,0,0,0,0,0,0,0,0,0,0,0,0,0,0,0,0,0,0,0,0,0,0,481,49,33,0,0,0,0,
1073742147,1073742131,1073742131,1073742131,1073742131,1073742131,1073742131,1073742131,0,0,0,0,0,0,0,0,0,0,0,0,0,0,0,0,0,0,0,0,0,0,0,0,0,497,497,497,497,497,497,0,
323,307,307,307,307,307,307,307,0,0,0,0,0,0,0,0,0,0,0,0,0,0,0,0,0,0,0,0,0,0,0,0,0,8,8,8,8,8,8,0,
291,273,482,33,65,337,8,0,0,0,0,0,0,0,0,0,0,0,0,0,0,0,0,0,0,0,0,0,0,0,0,0,0,33,113,97,0,0,0,0,
1073742147,1073742131,1073742131,1073742131,1073742131,1073742131,1073742131,1073742131,0,0,0,0,0,0,0,0,0,0,0,0,0,0,0,0,0,0,0,0,0,0,0,0,0,161,337,289,466,321,17,241,
323,307,307,307,307,307,307,307,0,0,0,0,0,0,0,0,0,0,0,0,0,0,0,0,0,0,0,0,0,0,0,0,0,497,497,497,497,497,497,0,
291,147,465,147,449,147,417,0,0,0,0,0,0,0,0,0,0,0,0,0,0,0,0,0,0,0,0,0,0,0,0,0,0,0,0,8,0,0,0,0,
1073742147,1073742131,1073742131,1073742131,1073742131,1073742131,1073742131,1073742131,0,0,0,0,0,0,0,0,0,0,0,0,0,0,0,0,0,0,0,0,0,0,0,0,0,305,65,273,289,209,33,0,
0,0,0,0,0,0,0,0,0,0,0,0,0,0,0,0,0,0,0,0,0,0,0,0,0,0,0,0,0,0,0,0,0,0,0,0,0,0,0,0,
8,8,0,8,8,0,8,8,0,0,0,0,0,0,0,0,0,0,0,0,0,0,0,0,0,0,0,0,0,0,0,0,0,497,8,8,0,0,0,0,
8,8,8,8,8,0,8,8,0,0,0,0,0,0,0,0,0,0,0,0,0,0,0,0,0,0,0,0,0,0,0,0,0,97,337,65,33,0,481,0,
0,0,0,0,0,0,0,0,0,0,0,0,0,0,0,0,0,0,0,0,0,0,0,0,0,0,0,0,0,0,0,0,0,8,0,8,0,0,0,0,
0,0,0,0,0,0,0,0,0,0,0,0,0,0,0,0,0,0,0,0,0,0,0,0,0,0,0,0,0,0,0,0,8,0,338,497,497,497,497,0,
0,0,0,0,0,0,0,0,0,0,0,0,0,0,0,0,0,0,0,0,0,0,0,0,0,0,0,0,0,0,0,0,0,0,0,8,0,0,0,0,
0,0,0,0,0,0,0,0,0,0,0,0,0,0,0,0,0,0,0,0,0,0,0,0,0,0,0,0,0,0,0,0,0,8,8,8,0,8,0,0,
0,0,0,0,0,0,0,0,0,0,0,0,0,0,0,0,0,0,0,0,0,0,0,0,0,0,0,0,0,0,0,0,0,0,0,0,0,0,0,0,
0,0,0,0,0,0,0,0,0,0,0,0,0,0,0,0,0,0,0,0,0,0,0,0,0,0,0,0,0,0,0,0,0,8,8,8,8,8,0,0,
0,0,0,0,0,0,0,0,0,0,0,0,0,0,0,0,0,0,0,0,0,0,0,0,0,0,0,0,0,0,0,0,0,8,0,8,0,8,0,0,
0,0,0,0,0,0,0,0,0,0,0,0,0,0,0,0,0,0,0,0,0,0,0,0,0,0,0,0,0,0,0,0,0,8,0,0,0,0,0,0,
0,0,0,0,0,0,0,0,0,0,0,0,0,0,0,0,0,0,0,0,0,0,0,0,0,0,0,0,0,0,0,0,0,8,0,8,0,8,8,0,
0,0,0,0,0,0,0,0,0,0,0,0,0,0,0,0,0,0,0,0,0,0,0,0,0,0,0,0,0,0,0,0,0,456,440,456,440,456,440,0,
0,0,0,0,0,0,0,0,0,0,0,0,0,0,0,0,0,0,0,0,0,0,0,0,0,0,0,0,0,0,0,0,0,488,472,488,472,488,472,0,
0,0,0,0,0,0,0,0,0,0,0,0,0,0,0,0,0,0,0,0,0,0,0,0,0,0,0,0,0,0,0,0,0,0,0,0,0,0,0,0
</data>
 </layer>
</map>
